; G-Code originally generated by Simplify3D(R) Version 4.1.2, based on proposed code by vector76
;M80 ; power supply on
G90
M82
M106 S0
M140 S60 ; custom bed temp
M190 S60 ; custom bed temp
M104 S200 T0 ; custom hot end temp
M109 S200 T0 ; custom hot end temp
G28 ; home all axes
G29 ; probe ABL
;M420 S1 ; restore ABL mesh 
;customstart
; process Color1
; layer 1, Z = 0.200
T0
G92 E0.0000
G1 E-5 F2400 ; custom retraction
; skirt 1
G1 Z0.400 F1200
G1 X14.636000000000003 Y16.314 F6000
G1 Z0.200 F1200
G1 E0 F2400 ; custom un-retraction/prime
G92 E0.0000
G1 X16.314 Y14.636000000000003 E0.1023 F1800
G1 X43.686 Y14.636000000000003 E1.2822
G1 X45.364000000000004 Y16.314 E1.3844
G1 X45.364000000000004 Y43.686 E2.5643
G1 X43.686 Y45.364000000000004 E2.6666
G1 X16.314 Y45.364000000000004 E3.8465
G1 X14.636000000000003 Y43.686 E3.9487
G1 X14.636000000000003 Y16.314 E5.1286
G92 E0.0000
G1 E-5 F2400 ; custom retraction
G1 Z0.600 F1200
G1 X15.212000000000003 Y16.552 F6000
G1 Z0.200 F1200
G1 E0 F2400 ; custom un-retraction/prime
G92 E0.0000
G1 X16.552 Y15.212000000000003 E0.0817 F1800
G1 X43.448 Y15.212000000000003 E1.2410
G1 X44.788 Y16.552 E1.3227
G1 X44.788 Y43.448 E2.4820
G1 X43.448 Y44.788 E2.5637
G1 X16.552 Y44.788 E3.7231
G1 X15.212000000000003 Y43.448 E3.8048
G1 X15.212000000000003 Y16.552 E4.9641
G92 E0.0000
G1 E-5 F2400 ; custom retraction
; skirt 2
G1 Z0.400 F1200
G1 X14.636000000000003 Y186.314 F6000
G1 Z0.200 F1200
G1 E0 F2400 ; custom un-retraction/prime
G92 E0.0000
G1 X16.314 Y184.636 E0.1023 F1800
G1 X43.686 Y184.636 E1.2822
G1 X45.364000000000004 Y186.314 E1.3844
G1 X45.364000000000004 Y213.686 E2.5643
G1 X43.686 Y215.364 E2.6666
G1 X16.314 Y215.364 E3.8465
G1 X14.636000000000003 Y213.686 E3.9487
G1 X14.636000000000003 Y186.314 E5.1286
G92 E0.0000
G1 E-5 F2400 ; custom retraction
G1 Z0.600 F1200
G1 X15.212000000000003 Y186.552 F6000
G1 Z0.200 F1200
G1 E0 F2400 ; custom un-retraction/prime
G92 E0.0000
G1 X16.552 Y185.212 E0.0817 F1800
G1 X43.448 Y185.212 E1.2410
G1 X44.788 Y186.552 E1.3227
G1 X44.788 Y213.448 E2.4820
G1 X43.448 Y214.788 E2.5637
G1 X16.552 Y214.788 E3.7231
G1 X15.212000000000003 Y213.448 E3.8048
G1 X15.212000000000003 Y186.552 E4.9641
G92 E0.0000
G1 E-5 F2400 ; custom retraction
; skirt 3
G1 Z0.400 F1200
G1 X99.636 Y101.314 F6000
G1 Z0.200 F1200
G1 E0 F2400 ; custom un-retraction/prime
G92 E0.0000
G1 X101.314 Y99.636 E0.1023 F1800
G1 X128.686 Y99.636 E1.2822
G1 X130.364 Y101.314 E1.3844
G1 X130.364 Y128.686 E2.5643
G1 X128.686 Y130.364 E2.6666
G1 X101.314 Y130.364 E3.8465
G1 X99.636 Y128.686 E3.9487
G1 X99.636 Y101.314 E5.1286
G92 E0.0000
G1 E-5 F2400 ; custom retraction
G1 Z0.600 F1200
G1 X100.212 Y101.55199999999999 F6000
G1 Z0.200 F1200
G1 E0 F2400 ; custom un-retraction/prime
G92 E0.0000
G1 X101.55199999999999 Y100.212 E0.0817 F1800
G1 X128.448 Y100.212 E1.2410
G1 X129.788 Y101.55199999999999 E1.3227
G1 X129.788 Y128.448 E2.4820
G1 X128.448 Y129.788 E2.5637
G1 X101.55199999999999 Y129.788 E3.7231
G1 X100.212 Y128.448 E3.8048
G1 X100.212 Y101.55199999999999 E4.9641
G92 E0.0000
G1 E-5 F2400 ; custom retraction
; skirt 4
G1 Z0.400 F1200
G1 X184.636 Y16.314 F6000
G1 Z0.200 F1200
G1 E0 F2400 ; custom un-retraction/prime
G92 E0.0000
G1 X186.314 Y14.636000000000003 E0.1023 F1800
G1 X213.686 Y14.636000000000003 E1.2822
G1 X215.364 Y16.314 E1.3844
G1 X215.364 Y43.686 E2.5643
G1 X213.686 Y45.364000000000004 E2.6666
G1 X186.314 Y45.364000000000004 E3.8465
G1 X184.636 Y43.686 E3.9487
G1 X184.636 Y16.314 E5.1286
G92 E0.0000
G1 E-5 F2400 ; custom retraction
G1 Z0.600 F1200
G1 X185.212 Y16.552 F6000
G1 Z0.200 F1200
G1 E0 F2400 ; custom un-retraction/prime
G92 E0.0000
G1 X186.552 Y15.212000000000003 E0.0817 F1800
G1 X213.448 Y15.212000000000003 E1.2410
G1 X214.788 Y16.552 E1.3227
G1 X214.788 Y43.448 E2.4820
G1 X213.448 Y44.788 E2.5637
G1 X186.552 Y44.788 E3.7231
G1 X185.212 Y43.448 E3.8048
G1 X185.212 Y16.552 E4.9641
G92 E0.0000
G1 E-5 F2400 ; custom retraction
; skirt 5
G1 Z0.400 F1200
G1 X184.636 Y186.314 F6000
G1 Z0.200 F1200
G1 E0 F2400 ; custom un-retraction/prime
G92 E0.0000
G1 X186.314 Y184.636 E0.1023 F1800
G1 X213.686 Y184.636 E1.2822
G1 X215.364 Y186.314 E1.3844
G1 X215.364 Y213.686 E2.5643
G1 X213.686 Y215.364 E2.6666
G1 X186.314 Y215.364 E3.8465
G1 X184.636 Y213.686 E3.9487
G1 X184.636 Y186.314 E5.1286
G92 E0.0000
G1 E-5 F2400 ; custom retraction
G1 Z0.600 F1200
G1 X185.212 Y186.552 F6000
G1 Z0.200 F1200
G1 E0 F2400 ; custom un-retraction/prime
G92 E0.0000
G1 X186.552 Y185.212 E0.0817 F1800
G1 X213.448 Y185.212 E1.2410
G1 X214.788 Y186.552 E1.3227
G1 X214.788 Y213.448 E2.4820
G1 X213.448 Y214.788 E2.5637
G1 X186.552 Y214.788 E3.7231
G1 X185.212 Y213.448 E3.8048
G1 X185.212 Y186.552 E4.9641
G92 E0.0000
G1 E-5 F2400 ; custom retraction
; square 1
; feature inner perimeter
G1 Z0.600 F1200
G1 X17.787999999999997 Y17.787999999999997 F6000
G1 X17.787999999999997 Y18.201999999999998
G1 X18.939999999999998 Y18.939999999999998
G1 Z0.200 F1200
G1 E0 F2400 ; custom un-retraction/prime
G92 E0.0000
G1 X41.06 Y18.939999999999998 E0.9535 F1350
G1 X41.06 Y41.06 E1.9069
G1 X18.939999999999998 Y41.06 E2.8604
G1 X18.939999999999998 Y18.939999999999998 E3.8139
G1 X18.363999999999997 Y18.363999999999997 F6000
G92 E0.0000
G1 X41.636 Y18.363999999999997 E1.0031 F1350
G1 X41.636 Y41.636 E2.0063
G1 X18.363999999999997 Y41.636 E3.0094
G1 X18.363999999999997 Y18.363999999999997 E4.0125
; feature outer perimeter
G1 X17.787999999999997 Y17.787999999999997 F6000
G92 E0.0000
G1 X42.212 Y17.787999999999997 E1.0528 F900
G1 X42.212 Y42.212 E2.1056
G1 X17.787999999999997 Y42.212 E3.1584
G1 X17.787999999999997 Y17.787999999999997 E4.2111
; feature solid layer
G1 X40.465 Y19.286 F6000
G92 E0.0000
G1 X40.714 Y19.534999999999997 E0.0152 F1440
G1 X40.714 Y20.35 E0.0503
G1 X39.65 Y19.286 E0.1152
G1 X38.836 Y19.286 E0.1503
G1 X40.714 Y21.164 E0.2648
G1 X40.714 Y21.979 E0.2999
G1 X38.021 Y19.286 E0.4640
G1 X37.207 Y19.286 E0.4992
G1 X40.714 Y22.793 E0.7130
G1 X40.714 Y23.607999999999997 E0.7481
G1 X36.392 Y19.286 E1.0116
G1 X35.578 Y19.286 E1.0467
G1 X40.714 Y24.421999999999997 E1.3598
G1 X40.714 Y25.237000000000002 E1.3949
G1 X34.763 Y19.286 E1.7577
G1 X33.948 Y19.286 E1.7928
G1 X40.714 Y26.052 E2.2053
G1 X40.714 Y26.866 E2.2404
G1 X33.134 Y19.286 E2.7025
G1 X32.319 Y19.286 E2.7376
G1 X40.714 Y27.680999999999997 E3.2494
G1 X40.714 Y28.494999999999997 E3.2845
G1 X31.505000000000003 Y19.286 E3.8459
G1 X30.689999999999998 Y19.286 E3.8810
G1 X40.714 Y29.310000000000002 E4.4921
G1 X40.714 Y30.125 E4.5272
G1 X29.875 Y19.286 E5.1879
G1 X29.061 Y19.286 E5.2230
G1 X40.714 Y30.939 E5.9334
G1 X40.714 Y31.753999999999998 E5.9685
G1 X28.246000000000002 Y19.286 E6.7286
G1 X27.432000000000002 Y19.286 E6.7637
G1 X40.714 Y32.568 E7.5734
G1 X40.714 Y33.383 E7.6085
G1 X26.616999999999997 Y19.286 E8.4679
G1 X25.802 Y19.286 E8.5030
G1 X40.714 Y34.198 E9.4120
G1 X40.714 Y35.012 E9.4471
G1 X24.988 Y19.286 E10.4058
G1 X24.173000000000002 Y19.286 E10.4409
G1 X40.714 Y35.827 E11.4492
G1 X40.714 Y36.641 E11.4844
G1 X23.359 Y19.286 E12.5424
G1 X22.543999999999997 Y19.286 E12.5775
G1 X40.714 Y37.456 E13.6851
G1 X40.714 Y38.27 E13.7202
G1 X21.729999999999997 Y19.286 E14.8775
G1 X20.915 Y19.286 E14.9126
G1 X40.714 Y39.085 E16.1196
G1 X40.714 Y39.9 E16.1547
G1 X20.1 Y19.286 E17.4113
G1 X19.286 Y19.286 E17.4464
G1 X40.714 Y40.714 E18.7527
G1 X39.9 Y40.714 E18.7878
G1 X19.286 Y20.1 E20.0445
G1 X19.286 Y20.915 E20.0796
G1 X39.085 Y40.714 E21.2865
G1 X38.27 Y40.714 E21.3216
G1 X19.286 Y21.729999999999997 E22.4789
G1 X19.286 Y22.543999999999997 E22.5141
G1 X37.456 Y40.714 E23.6217
G1 X36.641 Y40.714 E23.6568
G1 X19.286 Y23.359 E24.7148
G1 X19.286 Y24.173000000000002 E24.7499
G1 X35.827 Y40.714 E25.7583
G1 X35.012 Y40.714 E25.7934
G1 X19.286 Y24.988 E26.7520
G1 X19.286 Y25.802 E26.7872
G1 X34.198 Y40.714 E27.6962
G1 X33.383 Y40.714 E27.7313
G1 X19.286 Y26.616999999999997 E28.5907
G1 X19.286 Y27.432000000000002 E28.6258
G1 X32.568 Y40.714 E29.4355
G1 X31.753999999999998 Y40.714 E29.4706
G1 X19.286 Y28.246000000000002 E30.2306
G1 X19.286 Y29.061 E30.2658
G1 X30.939 Y40.714 E30.9761
G1 X30.125 Y40.714 E31.0113
G1 X19.286 Y29.875 E31.6720
G1 X19.286 Y30.689999999999998 E31.7071
G1 X29.310000000000002 Y40.714 E32.3182
G1 X28.494999999999997 Y40.714 E32.3533
G1 X19.286 Y31.505000000000003 E32.9147
G1 X19.286 Y32.319 E32.9498
G1 X27.680999999999997 Y40.714 E33.4616
G1 X26.866 Y40.714 E33.4967
G1 X19.286 Y33.134 E33.9588
G1 X19.286 Y33.948 E33.9939
G1 X26.052 Y40.714 E34.4064
G1 X25.237000000000002 Y40.714 E34.4415
G1 X19.286 Y34.763 E34.8043
G1 X19.286 Y35.577 E34.8394
G1 X24.421999999999997 Y40.714 E35.1525
G1 X23.607999999999997 Y40.714 E35.1876
G1 X19.286 Y36.392 E35.4511
G1 X19.286 Y37.207 E35.4862
G1 X22.793 Y40.714 E35.7000
G1 X21.979 Y40.714 E35.7352
G1 X19.286 Y38.021 E35.8993
G1 X19.286 Y38.836 E35.9344
G1 X21.164 Y40.714 E36.0489
G1 X20.35 Y40.714 E36.0841
G1 X19.286 Y39.65 E36.1489
G1 X19.286 Y40.465 E36.1840
G1 X19.534999999999997 Y40.714 E36.1992
G92 E0.0000
G1 E-5 F2400 ; custom retraction
; square 2
; feature inner perimeter
G1 Z0.600 F1200
G1 X17.787999999999997 Y187.788 F6000
G1 X17.787999999999997 Y188.202
G1 X18.939999999999998 Y188.94
G1 Z0.200 F1200
G1 E0 F2400 ; custom un-retraction/prime
G92 E0.0000
G1 X41.06 Y188.94 E0.9535 F1350
G1 X41.06 Y211.06 E1.9069
G1 X18.939999999999998 Y211.06 E2.8604
G1 X18.939999999999998 Y188.94 E3.8139
G1 X18.363999999999997 Y188.364 F6000
G92 E0.0000
G1 X41.636 Y188.364 E1.0031 F1350
G1 X41.636 Y211.636 E2.0063
G1 X18.363999999999997 Y211.636 E3.0094
G1 X18.363999999999997 Y188.364 E4.0125
; feature outer perimeter
G1 X17.787999999999997 Y187.788 F6000
G92 E0.0000
G1 X42.212 Y187.788 E1.0528 F900
G1 X42.212 Y212.212 E2.1056
G1 X17.787999999999997 Y212.212 E3.1584
G1 X17.787999999999997 Y187.788 E4.2111
; feature solid layer
G1 X40.465 Y189.286 F6000
G92 E0.0000
G1 X40.714 Y189.535 E0.0152 F1440
G1 X40.714 Y190.35 E0.0503
G1 X39.65 Y189.286 E0.1152
G1 X38.836 Y189.286 E0.1503
G1 X40.714 Y191.164 E0.2648
G1 X40.714 Y191.97899999999998 E0.2999
G1 X38.021 Y189.286 E0.4640
G1 X37.207 Y189.286 E0.4992
G1 X40.714 Y192.793 E0.7130
G1 X40.714 Y193.608 E0.7481
G1 X36.392 Y189.286 E1.0116
G1 X35.578 Y189.286 E1.0467
G1 X40.714 Y194.422 E1.3598
G1 X40.714 Y195.237 E1.3949
G1 X34.763 Y189.286 E1.7577
G1 X33.948 Y189.286 E1.7928
G1 X40.714 Y196.052 E2.2053
G1 X40.714 Y196.86599999999999 E2.2404
G1 X33.134 Y189.286 E2.7025
G1 X32.319 Y189.286 E2.7376
G1 X40.714 Y197.68099999999998 E3.2494
G1 X40.714 Y198.495 E3.2845
G1 X31.505000000000003 Y189.286 E3.8459
G1 X30.689999999999998 Y189.286 E3.8810
G1 X40.714 Y199.31 E4.4921
G1 X40.714 Y200.125 E4.5272
G1 X29.875 Y189.286 E5.1879
G1 X29.061 Y189.286 E5.2230
G1 X40.714 Y200.939 E5.9334
G1 X40.714 Y201.754 E5.9685
G1 X28.246000000000002 Y189.286 E6.7286
G1 X27.432000000000002 Y189.286 E6.7637
G1 X40.714 Y202.56799999999998 E7.5734
G1 X40.714 Y203.383 E7.6085
G1 X26.616999999999997 Y189.286 E8.4679
G1 X25.802 Y189.286 E8.5030
G1 X40.714 Y204.198 E9.4120
G1 X40.714 Y205.012 E9.4471
G1 X24.988 Y189.286 E10.4058
G1 X24.173000000000002 Y189.286 E10.4409
G1 X40.714 Y205.827 E11.4492
G1 X40.714 Y206.641 E11.4844
G1 X23.359 Y189.286 E12.5424
G1 X22.543999999999997 Y189.286 E12.5775
G1 X40.714 Y207.45600000000002 E13.6851
G1 X40.714 Y208.27 E13.7202
G1 X21.729999999999997 Y189.286 E14.8775
G1 X20.915 Y189.286 E14.9126
G1 X40.714 Y209.085 E16.1196
G1 X40.714 Y209.9 E16.1547
G1 X20.1 Y189.286 E17.4113
G1 X19.286 Y189.286 E17.4464
G1 X40.714 Y210.714 E18.7527
G1 X39.9 Y210.714 E18.7878
G1 X19.286 Y190.1 E20.0445
G1 X19.286 Y190.915 E20.0796
G1 X39.085 Y210.714 E21.2865
G1 X38.27 Y210.714 E21.3216
G1 X19.286 Y191.73 E22.4789
G1 X19.286 Y192.54399999999998 E22.5141
G1 X37.456 Y210.714 E23.6217
G1 X36.641 Y210.714 E23.6568
G1 X19.286 Y193.359 E24.7148
G1 X19.286 Y194.173 E24.7499
G1 X35.827 Y210.714 E25.7583
G1 X35.012 Y210.714 E25.7934
G1 X19.286 Y194.988 E26.7520
G1 X19.286 Y195.802 E26.7872
G1 X34.198 Y210.714 E27.6962
G1 X33.383 Y210.714 E27.7313
G1 X19.286 Y196.617 E28.5907
G1 X19.286 Y197.43200000000002 E28.6258
G1 X32.568 Y210.714 E29.4355
G1 X31.753999999999998 Y210.714 E29.4706
G1 X19.286 Y198.246 E30.2306
G1 X19.286 Y199.061 E30.2658
G1 X30.939 Y210.714 E30.9761
G1 X30.125 Y210.714 E31.0113
G1 X19.286 Y199.875 E31.6720
G1 X19.286 Y200.69 E31.7071
G1 X29.310000000000002 Y210.714 E32.3182
G1 X28.494999999999997 Y210.714 E32.3533
G1 X19.286 Y201.505 E32.9147
G1 X19.286 Y202.31900000000002 E32.9498
G1 X27.680999999999997 Y210.714 E33.4616
G1 X26.866 Y210.714 E33.4967
G1 X19.286 Y203.13400000000001 E33.9588
G1 X19.286 Y203.948 E33.9939
G1 X26.052 Y210.714 E34.4064
G1 X25.237000000000002 Y210.714 E34.4415
G1 X19.286 Y204.763 E34.8043
G1 X19.286 Y205.577 E34.8394
G1 X24.421999999999997 Y210.714 E35.1525
G1 X23.607999999999997 Y210.714 E35.1876
G1 X19.286 Y206.392 E35.4511
G1 X19.286 Y207.207 E35.4862
G1 X22.793 Y210.714 E35.7000
G1 X21.979 Y210.714 E35.7352
G1 X19.286 Y208.02100000000002 E35.8993
G1 X19.286 Y208.836 E35.9344
G1 X21.164 Y210.714 E36.0489
G1 X20.35 Y210.714 E36.0841
G1 X19.286 Y209.65 E36.1489
G1 X19.286 Y210.465 E36.1840
G1 X19.534999999999997 Y210.714 E36.1992
G92 E0.0000
G1 E-5 F2400 ; custom retraction
; square 3
; feature inner perimeter
G1 Z0.600 F1200
G1 X102.788 Y102.788 F6000
G1 X102.788 Y103.202
G1 X103.94 Y103.94
G1 Z0.200 F1200
G1 E0 F2400 ; custom un-retraction/prime
G92 E0.0000
G1 X126.06 Y103.94 E0.9535 F1350
G1 X126.06 Y126.06 E1.9069
G1 X103.94 Y126.06 E2.8604
G1 X103.94 Y103.94 E3.8139
G1 X103.364 Y103.364 F6000
G92 E0.0000
G1 X126.636 Y103.364 E1.0031 F1350
G1 X126.636 Y126.636 E2.0063
G1 X103.364 Y126.636 E3.0094
G1 X103.364 Y103.364 E4.0125
; feature outer perimeter
G1 X102.788 Y102.788 F6000
G92 E0.0000
G1 X127.212 Y102.788 E1.0528 F900
G1 X127.212 Y127.212 E2.1056
G1 X102.788 Y127.212 E3.1584
G1 X102.788 Y102.788 E4.2111
; feature solid layer
G1 X125.465 Y104.286 F6000
G92 E0.0000
G1 X125.714 Y104.535 E0.0152 F1440
G1 X125.714 Y105.35 E0.0503
G1 X124.65 Y104.286 E0.1152
G1 X123.836 Y104.286 E0.1503
G1 X125.714 Y106.164 E0.2648
G1 X125.714 Y106.979 E0.2999
G1 X123.021 Y104.286 E0.4640
G1 X122.207 Y104.286 E0.4992
G1 X125.714 Y107.793 E0.7130
G1 X125.714 Y108.608 E0.7481
G1 X121.392 Y104.286 E1.0116
G1 X120.578 Y104.286 E1.0467
G1 X125.714 Y109.422 E1.3598
G1 X125.714 Y110.237 E1.3949
G1 X119.763 Y104.286 E1.7577
G1 X118.94800000000001 Y104.286 E1.7928
G1 X125.714 Y111.05199999999999 E2.2053
G1 X125.714 Y111.866 E2.2404
G1 X118.134 Y104.286 E2.7025
G1 X117.319 Y104.286 E2.7376
G1 X125.714 Y112.681 E3.2494
G1 X125.714 Y113.495 E3.2845
G1 X116.505 Y104.286 E3.8459
G1 X115.69 Y104.286 E3.8810
G1 X125.714 Y114.31 E4.4921
G1 X125.714 Y115.125 E4.5272
G1 X114.875 Y104.286 E5.1879
G1 X114.061 Y104.286 E5.2230
G1 X125.714 Y115.939 E5.9334
G1 X125.714 Y116.75399999999999 E5.9685
G1 X113.24600000000001 Y104.286 E6.7286
G1 X112.432 Y104.286 E6.7637
G1 X125.714 Y117.568 E7.5734
G1 X125.714 Y118.38300000000001 E7.6085
G1 X111.61699999999999 Y104.286 E8.4679
G1 X110.80199999999999 Y104.286 E8.5030
G1 X125.714 Y119.19800000000001 E9.4120
G1 X125.714 Y120.012 E9.4471
G1 X109.988 Y104.286 E10.4058
G1 X109.173 Y104.286 E10.4409
G1 X125.714 Y120.827 E11.4492
G1 X125.714 Y121.64099999999999 E11.4844
G1 X108.35900000000001 Y104.286 E12.5424
G1 X107.544 Y104.286 E12.5775
G1 X125.714 Y122.456 E13.6851
G1 X125.714 Y123.27000000000001 E13.7202
G1 X106.72999999999999 Y104.286 E14.8775
G1 X105.91499999999999 Y104.286 E14.9126
G1 X125.714 Y124.08500000000001 E16.1196
G1 X125.714 Y124.9 E16.1547
G1 X105.1 Y104.286 E17.4113
G1 X104.286 Y104.286 E17.4464
G1 X125.714 Y125.714 E18.7527
G1 X124.9 Y125.714 E18.7878
G1 X104.286 Y105.1 E20.0445
G1 X104.286 Y105.91499999999999 E20.0796
G1 X124.08500000000001 Y125.714 E21.2865
G1 X123.27000000000001 Y125.714 E21.3216
G1 X104.286 Y106.72999999999999 E22.4789
G1 X104.286 Y107.544 E22.5141
G1 X122.456 Y125.714 E23.6217
G1 X121.64099999999999 Y125.714 E23.6568
G1 X104.286 Y108.35900000000001 E24.7148
G1 X104.286 Y109.173 E24.7499
G1 X120.827 Y125.714 E25.7583
G1 X120.012 Y125.714 E25.7934
G1 X104.286 Y109.988 E26.7520
G1 X104.286 Y110.80199999999999 E26.7872
G1 X119.19800000000001 Y125.714 E27.6962
G1 X118.38300000000001 Y125.714 E27.7313
G1 X104.286 Y111.61699999999999 E28.5907
G1 X104.286 Y112.432 E28.6258
G1 X117.568 Y125.714 E29.4355
G1 X116.75399999999999 Y125.714 E29.4706
G1 X104.286 Y113.24600000000001 E30.2306
G1 X104.286 Y114.061 E30.2658
G1 X115.939 Y125.714 E30.9761
G1 X115.125 Y125.714 E31.0113
G1 X104.286 Y114.875 E31.6720
G1 X104.286 Y115.69 E31.7071
G1 X114.31 Y125.714 E32.3182
G1 X113.495 Y125.714 E32.3533
G1 X104.286 Y116.505 E32.9147
G1 X104.286 Y117.319 E32.9498
G1 X112.681 Y125.714 E33.4616
G1 X111.866 Y125.714 E33.4967
G1 X104.286 Y118.134 E33.9588
G1 X104.286 Y118.94800000000001 E33.9939
G1 X111.05199999999999 Y125.714 E34.4064
G1 X110.237 Y125.714 E34.4415
G1 X104.286 Y119.763 E34.8043
G1 X104.286 Y120.577 E34.8394
G1 X109.422 Y125.714 E35.1525
G1 X108.608 Y125.714 E35.1876
G1 X104.286 Y121.392 E35.4511
G1 X104.286 Y122.207 E35.4862
G1 X107.793 Y125.714 E35.7000
G1 X106.979 Y125.714 E35.7352
G1 X104.286 Y123.021 E35.8993
G1 X104.286 Y123.836 E35.9344
G1 X106.164 Y125.714 E36.0489
G1 X105.35 Y125.714 E36.0841
G1 X104.286 Y124.65 E36.1489
G1 X104.286 Y125.465 E36.1840
G1 X104.535 Y125.714 E36.1992
G92 E0.0000
G1 E-5 F2400 ; custom retraction
; square 4
; feature inner perimeter
G1 Z0.600 F1200
G1 X187.788 Y17.787999999999997 F6000
G1 X187.788 Y18.201999999999998
G1 X188.94 Y18.939999999999998
G1 Z0.200 F1200
G1 E0 F2400 ; custom un-retraction/prime
G92 E0.0000
G1 X211.06 Y18.939999999999998 E0.9535 F1350
G1 X211.06 Y41.06 E1.9069
G1 X188.94 Y41.06 E2.8604
G1 X188.94 Y18.939999999999998 E3.8139
G1 X188.364 Y18.363999999999997 F6000
G92 E0.0000
G1 X211.636 Y18.363999999999997 E1.0031 F1350
G1 X211.636 Y41.636 E2.0063
G1 X188.364 Y41.636 E3.0094
G1 X188.364 Y18.363999999999997 E4.0125
; feature outer perimeter
G1 X187.788 Y17.787999999999997 F6000
G92 E0.0000
G1 X212.212 Y17.787999999999997 E1.0528 F900
G1 X212.212 Y42.212 E2.1056
G1 X187.788 Y42.212 E3.1584
G1 X187.788 Y17.787999999999997 E4.2111
; feature solid layer
G1 X210.465 Y19.286 F6000
G92 E0.0000
G1 X210.714 Y19.534999999999997 E0.0152 F1440
G1 X210.714 Y20.35 E0.0503
G1 X209.65 Y19.286 E0.1152
G1 X208.836 Y19.286 E0.1503
G1 X210.714 Y21.164 E0.2648
G1 X210.714 Y21.979 E0.2999
G1 X208.02100000000002 Y19.286 E0.4640
G1 X207.207 Y19.286 E0.4992
G1 X210.714 Y22.793 E0.7130
G1 X210.714 Y23.607999999999997 E0.7481
G1 X206.392 Y19.286 E1.0116
G1 X205.578 Y19.286 E1.0467
G1 X210.714 Y24.421999999999997 E1.3598
G1 X210.714 Y25.237000000000002 E1.3949
G1 X204.763 Y19.286 E1.7577
G1 X203.948 Y19.286 E1.7928
G1 X210.714 Y26.052 E2.2053
G1 X210.714 Y26.866 E2.2404
G1 X203.13400000000001 Y19.286 E2.7025
G1 X202.31900000000002 Y19.286 E2.7376
G1 X210.714 Y27.680999999999997 E3.2494
G1 X210.714 Y28.494999999999997 E3.2845
G1 X201.505 Y19.286 E3.8459
G1 X200.69 Y19.286 E3.8810
G1 X210.714 Y29.310000000000002 E4.4921
G1 X210.714 Y30.125 E4.5272
G1 X199.875 Y19.286 E5.1879
G1 X199.061 Y19.286 E5.2230
G1 X210.714 Y30.939 E5.9334
G1 X210.714 Y31.753999999999998 E5.9685
G1 X198.246 Y19.286 E6.7286
G1 X197.43200000000002 Y19.286 E6.7637
G1 X210.714 Y32.568 E7.5734
G1 X210.714 Y33.383 E7.6085
G1 X196.617 Y19.286 E8.4679
G1 X195.802 Y19.286 E8.5030
G1 X210.714 Y34.198 E9.4120
G1 X210.714 Y35.012 E9.4471
G1 X194.988 Y19.286 E10.4058
G1 X194.173 Y19.286 E10.4409
G1 X210.714 Y35.827 E11.4492
G1 X210.714 Y36.641 E11.4844
G1 X193.359 Y19.286 E12.5424
G1 X192.54399999999998 Y19.286 E12.5775
G1 X210.714 Y37.456 E13.6851
G1 X210.714 Y38.27 E13.7202
G1 X191.73 Y19.286 E14.8775
G1 X190.915 Y19.286 E14.9126
G1 X210.714 Y39.085 E16.1196
G1 X210.714 Y39.9 E16.1547
G1 X190.1 Y19.286 E17.4113
G1 X189.286 Y19.286 E17.4464
G1 X210.714 Y40.714 E18.7527
G1 X209.9 Y40.714 E18.7878
G1 X189.286 Y20.1 E20.0445
G1 X189.286 Y20.915 E20.0796
G1 X209.085 Y40.714 E21.2865
G1 X208.27 Y40.714 E21.3216
G1 X189.286 Y21.729999999999997 E22.4789
G1 X189.286 Y22.543999999999997 E22.5141
G1 X207.45600000000002 Y40.714 E23.6217
G1 X206.641 Y40.714 E23.6568
G1 X189.286 Y23.359 E24.7148
G1 X189.286 Y24.173000000000002 E24.7499
G1 X205.827 Y40.714 E25.7583
G1 X205.012 Y40.714 E25.7934
G1 X189.286 Y24.988 E26.7520
G1 X189.286 Y25.802 E26.7872
G1 X204.198 Y40.714 E27.6962
G1 X203.383 Y40.714 E27.7313
G1 X189.286 Y26.616999999999997 E28.5907
G1 X189.286 Y27.432000000000002 E28.6258
G1 X202.56799999999998 Y40.714 E29.4355
G1 X201.754 Y40.714 E29.4706
G1 X189.286 Y28.246000000000002 E30.2306
G1 X189.286 Y29.061 E30.2658
G1 X200.939 Y40.714 E30.9761
G1 X200.125 Y40.714 E31.0113
G1 X189.286 Y29.875 E31.6720
G1 X189.286 Y30.689999999999998 E31.7071
G1 X199.31 Y40.714 E32.3182
G1 X198.495 Y40.714 E32.3533
G1 X189.286 Y31.505000000000003 E32.9147
G1 X189.286 Y32.319 E32.9498
G1 X197.68099999999998 Y40.714 E33.4616
G1 X196.86599999999999 Y40.714 E33.4967
G1 X189.286 Y33.134 E33.9588
G1 X189.286 Y33.948 E33.9939
G1 X196.052 Y40.714 E34.4064
G1 X195.237 Y40.714 E34.4415
G1 X189.286 Y34.763 E34.8043
G1 X189.286 Y35.577 E34.8394
G1 X194.422 Y40.714 E35.1525
G1 X193.608 Y40.714 E35.1876
G1 X189.286 Y36.392 E35.4511
G1 X189.286 Y37.207 E35.4862
G1 X192.793 Y40.714 E35.7000
G1 X191.97899999999998 Y40.714 E35.7352
G1 X189.286 Y38.021 E35.8993
G1 X189.286 Y38.836 E35.9344
G1 X191.164 Y40.714 E36.0489
G1 X190.35 Y40.714 E36.0841
G1 X189.286 Y39.65 E36.1489
G1 X189.286 Y40.465 E36.1840
G1 X189.535 Y40.714 E36.1992
G92 E0.0000
G1 E-5 F2400 ; custom retraction
; square 5
; feature inner perimeter
G1 Z0.600 F1200
G1 X187.788 Y187.788 F6000
G1 X187.788 Y188.202
G1 X188.94 Y188.94
G1 Z0.200 F1200
G1 E0 F2400 ; custom un-retraction/prime
G92 E0.0000
G1 X211.06 Y188.94 E0.9535 F1350
G1 X211.06 Y211.06 E1.9069
G1 X188.94 Y211.06 E2.8604
G1 X188.94 Y188.94 E3.8139
G1 X188.364 Y188.364 F6000
G92 E0.0000
G1 X211.636 Y188.364 E1.0031 F1350
G1 X211.636 Y211.636 E2.0063
G1 X188.364 Y211.636 E3.0094
G1 X188.364 Y188.364 E4.0125
; feature outer perimeter
G1 X187.788 Y187.788 F6000
G92 E0.0000
G1 X212.212 Y187.788 E1.0528 F900
G1 X212.212 Y212.212 E2.1056
G1 X187.788 Y212.212 E3.1584
G1 X187.788 Y187.788 E4.2111
; feature solid layer
G1 X210.465 Y189.286 F6000
G92 E0.0000
G1 X210.714 Y189.535 E0.0152 F1440
G1 X210.714 Y190.35 E0.0503
G1 X209.65 Y189.286 E0.1152
G1 X208.836 Y189.286 E0.1503
G1 X210.714 Y191.164 E0.2648
G1 X210.714 Y191.97899999999998 E0.2999
G1 X208.02100000000002 Y189.286 E0.4640
G1 X207.207 Y189.286 E0.4992
G1 X210.714 Y192.793 E0.7130
G1 X210.714 Y193.608 E0.7481
G1 X206.392 Y189.286 E1.0116
G1 X205.578 Y189.286 E1.0467
G1 X210.714 Y194.422 E1.3598
G1 X210.714 Y195.237 E1.3949
G1 X204.763 Y189.286 E1.7577
G1 X203.948 Y189.286 E1.7928
G1 X210.714 Y196.052 E2.2053
G1 X210.714 Y196.86599999999999 E2.2404
G1 X203.13400000000001 Y189.286 E2.7025
G1 X202.31900000000002 Y189.286 E2.7376
G1 X210.714 Y197.68099999999998 E3.2494
G1 X210.714 Y198.495 E3.2845
G1 X201.505 Y189.286 E3.8459
G1 X200.69 Y189.286 E3.8810
G1 X210.714 Y199.31 E4.4921
G1 X210.714 Y200.125 E4.5272
G1 X199.875 Y189.286 E5.1879
G1 X199.061 Y189.286 E5.2230
G1 X210.714 Y200.939 E5.9334
G1 X210.714 Y201.754 E5.9685
G1 X198.246 Y189.286 E6.7286
G1 X197.43200000000002 Y189.286 E6.7637
G1 X210.714 Y202.56799999999998 E7.5734
G1 X210.714 Y203.383 E7.6085
G1 X196.617 Y189.286 E8.4679
G1 X195.802 Y189.286 E8.5030
G1 X210.714 Y204.198 E9.4120
G1 X210.714 Y205.012 E9.4471
G1 X194.988 Y189.286 E10.4058
G1 X194.173 Y189.286 E10.4409
G1 X210.714 Y205.827 E11.4492
G1 X210.714 Y206.641 E11.4844
G1 X193.359 Y189.286 E12.5424
G1 X192.54399999999998 Y189.286 E12.5775
G1 X210.714 Y207.45600000000002 E13.6851
G1 X210.714 Y208.27 E13.7202
G1 X191.73 Y189.286 E14.8775
G1 X190.915 Y189.286 E14.9126
G1 X210.714 Y209.085 E16.1196
G1 X210.714 Y209.9 E16.1547
G1 X190.1 Y189.286 E17.4113
G1 X189.286 Y189.286 E17.4464
G1 X210.714 Y210.714 E18.7527
G1 X209.9 Y210.714 E18.7878
G1 X189.286 Y190.1 E20.0445
G1 X189.286 Y190.915 E20.0796
G1 X209.085 Y210.714 E21.2865
G1 X208.27 Y210.714 E21.3216
G1 X189.286 Y191.73 E22.4789
G1 X189.286 Y192.54399999999998 E22.5141
G1 X207.45600000000002 Y210.714 E23.6217
G1 X206.641 Y210.714 E23.6568
G1 X189.286 Y193.359 E24.7148
G1 X189.286 Y194.173 E24.7499
G1 X205.827 Y210.714 E25.7583
G1 X205.012 Y210.714 E25.7934
G1 X189.286 Y194.988 E26.7520
G1 X189.286 Y195.802 E26.7872
G1 X204.198 Y210.714 E27.6962
G1 X203.383 Y210.714 E27.7313
G1 X189.286 Y196.617 E28.5907
G1 X189.286 Y197.43200000000002 E28.6258
G1 X202.56799999999998 Y210.714 E29.4355
G1 X201.754 Y210.714 E29.4706
G1 X189.286 Y198.246 E30.2306
G1 X189.286 Y199.061 E30.2658
G1 X200.939 Y210.714 E30.9761
G1 X200.125 Y210.714 E31.0113
G1 X189.286 Y199.875 E31.6720
G1 X189.286 Y200.69 E31.7071
G1 X199.31 Y210.714 E32.3182
G1 X198.495 Y210.714 E32.3533
G1 X189.286 Y201.505 E32.9147
G1 X189.286 Y202.31900000000002 E32.9498
G1 X197.68099999999998 Y210.714 E33.4616
G1 X196.86599999999999 Y210.714 E33.4967
G1 X189.286 Y203.13400000000001 E33.9588
G1 X189.286 Y203.948 E33.9939
G1 X196.052 Y210.714 E34.4064
G1 X195.237 Y210.714 E34.4415
G1 X189.286 Y204.763 E34.8043
G1 X189.286 Y205.577 E34.8394
G1 X194.422 Y210.714 E35.1525
G1 X193.608 Y210.714 E35.1876
G1 X189.286 Y206.392 E35.4511
G1 X189.286 Y207.207 E35.4862
G1 X192.793 Y210.714 E35.7000
G1 X191.97899999999998 Y210.714 E35.7352
G1 X189.286 Y208.02100000000002 E35.8993
G1 X189.286 Y208.836 E35.9344
G1 X191.164 Y210.714 E36.0489
G1 X190.35 Y210.714 E36.0841
G1 X189.286 Y209.65 E36.1489
G1 X189.286 Y210.465 E36.1840
G1 X189.535 Y210.714 E36.1992
G92 E0.0000
G1 E-5 F2400 ; custom retraction
; layer end
G28 X0 ; home X axis
M106 S0 ; turn off cooling fan
M104 S0 ; turn off extruder
M140 S0 ; turn off bed
M84 ; disable motors
