;FLAVOR:Marlin
;TIME:487
;Filament used: 0.641665m
;Layer height: 0.2
;MINX:32
;MINY:48
;MINZ:0.3
;MAXX:203
;MAXY:187
;MAXZ:0.3
;Generated with Cura_SteamEngine 4.9.1
M140 S86
M105
M190 S86
M104 S240
M105
M109 S240
M82 ;absolute extrusion mode
; Two Trees Bluer Custom Start G-code
G28 ;Home

; Either do bed levelling at start or restore ABL mesh
G29 ; probe bed
; M420 S1 ; restore ABL mesh

G92 E0 ;Reset Extruder
G1 Z4.0 F3000 ;Move Z Axis up
G1 E10 F1500 ;Purge a bit
G1 X10.1 Y20 Z0.2 F5000.0 ;Move to start position
G1 X10.1 Y200.0 Z0.2 F1500.0 E15 ;Draw the first line
G1 X10.4 Y200.0 Z0.2 F5000.0 ;Move to side a little
G1 X10.4 Y20 Z0.2 F1500.0 E20 ;Draw the second line
G92 E0 ;Reset Extruder
G1 Z3.0 X20 Y20 F3000 ;Move Z Axis up
G1 E3 F2700 ;Purge a bit
G92 E0
G92 E0
G1 F1800 E-4
;LAYER_COUNT:1
;LAYER:0
M107
G0 F3600 X33.86 Y48.635 Z0.3
;TYPE:SKIRT
G1 F1800 E0
G1 X34.357 Y48.366 E0.02819
G1 X34.887 Y48.169 E0.0564
G1 X35.44 Y48.05 E0.08462
G1 X36.218 Y48.002 E0.12351
G1 X36.33 Y48 E0.1291
G1 X58.35 Y48 E1.22768
G1 X59.051 Y48.01 E1.26266
G1 X59.818 Y48.096 E1.30117
G1 X60.217 Y48.181 E1.32152
G1 X62.221 Y48.644 E1.42413
G1 X64.904 Y49.183 E1.56066
G1 X67.597 Y49.644 E1.69697
G1 X70.296 Y50.03 E1.83299
G1 X72.975 Y50.335 E1.96751
G1 X75.644 Y50.563 E2.10116
G1 X78.419 Y50.721 E2.23983
G1 X81.089 Y50.798 E2.37309
G1 X83.831 Y50.798 E2.50989
G1 X86.505 Y50.723 E2.64335
G1 X89.248 Y50.569 E2.78041
G1 X91.97 Y50.339 E2.91669
G1 X94.633 Y50.037 E3.0504
G1 X97.327 Y49.654 E3.18616
G1 X100.011 Y49.195 E3.32201
G1 X102.675 Y48.662 E3.45755
G1 X104.146 Y48.333 E3.53275
G1 X105.107 Y48.112 E3.58195
G1 X105.881 Y48.012 E3.62088
G1 X106.33 Y48 E3.64329
G1 X128.35 Y48 E4.74188
G1 X129.051 Y48.01 E4.77685
G1 X129.818 Y48.096 E4.81536
G1 X130.217 Y48.181 E4.83571
G1 X132.221 Y48.644 E4.93832
G1 X134.904 Y49.183 E5.07485
G1 X137.597 Y49.644 E5.21116
G1 X140.296 Y50.03 E5.34719
G1 X142.975 Y50.335 E5.48171
G1 X145.644 Y50.563 E5.61535
G1 X148.419 Y50.721 E5.75402
G1 X151.089 Y50.798 E5.88728
G1 X153.831 Y50.798 E6.02408
G1 X156.505 Y50.723 E6.15754
G1 X159.248 Y50.569 E6.2946
G1 X161.97 Y50.339 E6.43089
G1 X164.633 Y50.037 E6.5646
G1 X167.327 Y49.654 E6.70035
G1 X170.011 Y49.195 E6.8362
G1 X172.675 Y48.662 E6.97174
G1 X174.146 Y48.333 E7.04694
G1 X175.107 Y48.112 E7.09614
G1 X175.881 Y48.012 E7.13508
G1 X176.33 Y48 E7.15748
G1 X198.345 Y48 E8.25582
G1 X199.043 Y48.009 E8.29064
G1 X199.606 Y48.057 E8.31883
G1 X200.157 Y48.183 E8.34703
G1 X200.685 Y48.385 E8.37524
G1 X201.179 Y48.66 E8.40344
G1 X201.629 Y49.002 E8.43164
G1 X202.027 Y49.404 E8.45986
G1 X202.363 Y49.858 E8.48804
G1 X202.633 Y50.355 E8.51626
G1 X202.83 Y50.885 E8.54447
G1 X202.95 Y51.437 E8.57265
G1 X202.998 Y52.218 E8.61169
G1 X203 Y52.33 E8.61728
G1 X203 Y74.334 E9.71506
G1 X202.989 Y75.071 E9.75184
G1 X202.949 Y75.576 E9.77711
G1 X202.564 Y78.277 E9.91323
G1 X202.261 Y80.931 E10.04649
G1 X202.029 Y83.66 E10.18314
G1 X201.873 Y86.405 E10.32031
G1 X201.796 Y89.076 E10.45362
G1 X201.796 Y91.82 E10.59052
G1 X201.871 Y94.491 E10.72383
G1 X202.025 Y97.228 E10.86059
G1 X202.257 Y99.961 E10.99743
G1 X202.556 Y102.603 E11.13008
G1 X202.76 Y104.111 E11.206
G1 X202.949 Y105.431 E11.27253
G1 X202.998 Y106.209 E11.31142
G1 X203 Y106.33 E11.31746
G1 X203 Y128.334 E12.41524
G1 X202.989 Y129.071 E12.45202
G1 X202.949 Y129.576 E12.47729
G1 X202.564 Y132.277 E12.6134
G1 X202.261 Y134.931 E12.74667
G1 X202.029 Y137.66 E12.88331
G1 X201.873 Y140.405 E13.02048
G1 X201.796 Y143.076 E13.1538
G1 X201.796 Y145.82 E13.29069
G1 X201.871 Y148.491 E13.424
G1 X202.025 Y151.228 E13.56077
G1 X202.257 Y153.961 E13.69761
G1 X202.556 Y156.603 E13.83026
G1 X202.76 Y158.111 E13.90618
G1 X202.949 Y159.431 E13.97271
G1 X202.998 Y160.209 E14.0116
G1 X203 Y160.33 E14.01764
G1 X203 Y182.314 E15.11442
G1 X202.991 Y183.041 E15.1507
G1 X202.944 Y183.604 E15.17888
G1 X202.818 Y184.155 E15.20708
G1 X202.616 Y184.683 E15.23528
G1 X202.341 Y185.177 E15.26349
G1 X201.999 Y185.627 E15.29169
G1 X201.597 Y186.025 E15.31991
G1 X201.144 Y186.362 E15.34808
G1 X200.647 Y186.632 E15.3763
G1 X200.117 Y186.829 E15.40451
G1 X199.565 Y186.95 E15.4327
G1 X198.782 Y186.998 E15.47184
G1 X198.67 Y187 E15.47743
G1 X176.65 Y187 E16.57601
G1 X175.949 Y186.99 E16.61099
G1 X175.182 Y186.904 E16.64949
G1 X174.783 Y186.819 E16.66985
G1 X172.779 Y186.356 E16.77246
G1 X170.096 Y185.817 E16.90899
G1 X167.403 Y185.356 E17.0453
G1 X164.704 Y184.97 E17.18132
G1 X162.025 Y184.665 E17.31584
G1 X159.356 Y184.437 E17.44948
G1 X156.581 Y184.279 E17.58815
G1 X153.911 Y184.202 E17.72141
G1 X151.169 Y184.202 E17.85821
G1 X148.495 Y184.277 E17.99167
G1 X145.752 Y184.431 E18.12874
G1 X143.03 Y184.661 E18.26502
G1 X140.367 Y184.963 E18.39873
G1 X137.673 Y185.346 E18.53449
G1 X134.989 Y185.805 E18.67034
G1 X132.325 Y186.338 E18.80588
G1 X130.854 Y186.667 E18.88108
G1 X129.893 Y186.888 E18.93027
G1 X129.119 Y186.988 E18.96921
G1 X128.67 Y187 E18.99162
G1 X106.65 Y187 E20.0902
G1 X105.949 Y186.99 E20.12518
G1 X105.182 Y186.904 E20.16368
G1 X104.783 Y186.819 E20.18404
G1 X102.779 Y186.356 E20.28665
G1 X100.096 Y185.817 E20.42318
G1 X97.403 Y185.356 E20.55949
G1 X94.704 Y184.97 E20.69551
G1 X92.025 Y184.665 E20.83003
G1 X89.356 Y184.437 E20.96367
G1 X86.581 Y184.279 E21.10234
G1 X83.911 Y184.202 E21.23561
G1 X81.169 Y184.202 E21.3724
G1 X78.495 Y184.277 E21.50586
G1 X75.752 Y184.431 E21.64293
G1 X73.03 Y184.661 E21.77921
G1 X70.367 Y184.963 E21.91292
G1 X67.673 Y185.346 E22.04868
G1 X64.989 Y185.805 E22.18453
G1 X62.325 Y186.338 E22.32007
G1 X60.854 Y186.667 E22.39527
G1 X59.893 Y186.888 E22.44447
G1 X59.119 Y186.988 E22.4834
G1 X58.67 Y187 E22.50581
G1 X36.655 Y187 E23.60414
G1 X35.957 Y186.991 E23.63897
G1 X35.394 Y186.943 E23.66716
G1 X34.843 Y186.817 E23.69536
G1 X34.315 Y186.615 E23.72356
G1 X33.821 Y186.34 E23.75177
G1 X33.371 Y185.998 E23.77997
G1 X32.973 Y185.596 E23.80819
G1 X32.637 Y185.142 E23.83637
G1 X32.367 Y184.645 E23.86459
G1 X32.17 Y184.115 E23.8928
G1 X32.05 Y183.563 E23.92098
G1 X32.001 Y182.766 E23.96082
G1 X32 Y160.646 E25.06439
G1 X32.011 Y159.928 E25.10021
G1 X32.051 Y159.424 E25.12544
G1 X32.436 Y156.723 E25.26155
G1 X32.739 Y154.069 E25.39482
G1 X32.971 Y151.34 E25.53146
G1 X33.127 Y148.595 E25.66863
G1 X33.204 Y145.924 E25.80194
G1 X33.204 Y143.18 E25.93884
G1 X33.129 Y140.509 E26.07215
G1 X32.975 Y137.771 E26.20897
G1 X32.741 Y135.014 E26.34701
G1 X32.444 Y132.397 E26.47841
G1 X32.24 Y130.888 E26.55438
G1 X32.049 Y129.555 E26.62156
G1 X32.002 Y128.783 E26.66015
G1 X32 Y128.67 E26.66579
G1 X32 Y106.646 E27.76457
G1 X32.011 Y105.928 E27.80039
G1 X32.051 Y105.424 E27.82562
G1 X32.436 Y102.723 E27.96173
G1 X32.739 Y100.069 E28.095
G1 X32.971 Y97.34 E28.23164
G1 X33.127 Y94.595 E28.36881
G1 X33.204 Y91.924 E28.50213
G1 X33.204 Y89.18 E28.63902
G1 X33.129 Y86.509 E28.77233
G1 X32.975 Y83.771 E28.90915
G1 X32.741 Y81.014 E29.04719
G1 X32.444 Y78.397 E29.17859
G1 X32.24 Y76.888 E29.25456
G1 X32.049 Y75.555 E29.32174
G1 X32.002 Y74.783 E29.36033
G1 X32 Y74.67 E29.36597
G1 X32 Y52.62 E30.46605
G1 X32.009 Y51.955 E30.49923
G1 X32.057 Y51.392 E30.52742
G1 X32.183 Y50.841 E30.55562
G1 X32.386 Y50.313 E30.58384
G1 X32.662 Y49.819 E30.61207
G1 X33.004 Y49.369 E30.64027
G1 X33.406 Y48.972 E30.66846
G1 X33.527 Y48.882 E30.67598
G0 F1620 X33.86 Y48.635
G0 F3600 X34.241 Y48.873
G1 F1800 X34.726 Y48.645 E30.70272
G1 X35.24 Y48.492 E30.72947
G1 X35.908 Y48.41 E30.76305
G1 X36.33 Y48.4 E30.78411
G1 X58.344 Y48.4 E31.88239
G1 X59.045 Y48.41 E31.91737
G1 X59.736 Y48.487 E31.95206
G1 X60.127 Y48.57 E31.972
G1 X62.157 Y49.039 E32.07594
G1 X64.863 Y49.582 E32.21364
G1 X67.509 Y50.036 E32.34758
G1 X70.226 Y50.424 E32.4845
G1 X72.932 Y50.732 E32.62038
G1 X75.658 Y50.965 E32.75687
G1 X78.35 Y51.119 E32.8914
G1 X81.112 Y51.198 E33.02925
G1 X83.807 Y51.198 E33.1637
G1 X86.572 Y51.121 E33.3017
G1 X89.268 Y50.969 E33.43642
G1 X91.981 Y50.74 E33.57226
G1 X94.703 Y50.431 E33.70893
G1 X97.374 Y50.051 E33.84353
G1 X100.091 Y49.587 E33.98104
G1 X102.789 Y49.047 E34.11831
G1 X104.21 Y48.729 E34.19096
G1 X105.196 Y48.502 E34.24144
G1 X105.894 Y48.412 E34.27655
G1 X106.33 Y48.4 E34.29831
G1 X128.344 Y48.4 E35.3966
G1 X129.045 Y48.41 E35.43157
G1 X129.736 Y48.487 E35.46626
G1 X130.127 Y48.57 E35.4862
G1 X132.157 Y49.039 E35.59015
G1 X134.863 Y49.582 E35.72784
G1 X137.509 Y50.036 E35.86178
G1 X140.226 Y50.424 E35.99871
G1 X142.932 Y50.732 E36.13458
G1 X145.658 Y50.965 E36.27108
G1 X148.35 Y51.119 E36.4056
G1 X151.112 Y51.198 E36.54345
G1 X153.807 Y51.198 E36.67791
G1 X156.572 Y51.121 E36.81591
G1 X159.268 Y50.969 E36.95063
G1 X161.981 Y50.74 E37.08646
G1 X164.703 Y50.431 E37.22313
G1 X167.374 Y50.051 E37.35773
G1 X170.091 Y49.587 E37.49525
G1 X172.789 Y49.047 E37.63252
G1 X174.21 Y48.729 E37.70517
G1 X175.196 Y48.502 E37.75564
G1 X175.894 Y48.412 E37.79076
G1 X176.33 Y48.4 E37.81252
G1 X198.339 Y48.4 E38.91055
G1 X199.037 Y48.409 E38.94538
G1 X199.572 Y48.456 E38.97217
G1 X200.093 Y48.582 E38.99891
G1 X200.59 Y48.784 E39.02568
G1 X201.051 Y49.057 E39.05241
G1 X201.467 Y49.396 E39.07918
G1 X201.828 Y49.792 E39.10591
G1 X202.126 Y50.238 E39.13267
G1 X202.354 Y50.724 E39.15946
G1 X202.507 Y51.238 E39.18621
G1 X202.59 Y51.908 E39.21989
G1 X202.6 Y52.33 E39.24095
G1 X202.6 Y74.328 E40.33844
G1 X202.589 Y75.065 E40.37521
G1 X202.553 Y75.52 E40.39798
G1 X202.169 Y78.212 E40.53365
G1 X201.86 Y80.923 E40.66977
G1 X201.629 Y83.639 E40.80577
G1 X201.476 Y86.314 E40.93944
G1 X201.396 Y89.099 E41.07844
G1 X201.396 Y91.795 E41.21295
G1 X201.473 Y94.561 E41.351
G1 X201.625 Y97.249 E41.48531
G1 X201.855 Y99.969 E41.6215
G1 X202.16 Y102.656 E41.75642
G1 X202.36 Y104.136 E41.83092
G1 X202.554 Y105.488 E41.89907
G1 X202.598 Y106.221 E41.9357
G1 X202.6 Y106.33 E41.94114
G1 X202.6 Y128.328 E43.03863
G1 X202.589 Y129.065 E43.0754
G1 X202.553 Y129.52 E43.09817
G1 X202.169 Y132.212 E43.23383
G1 X201.86 Y134.923 E43.36996
G1 X201.629 Y137.639 E43.50595
G1 X201.476 Y140.314 E43.63963
G1 X201.396 Y143.099 E43.77863
G1 X201.396 Y145.795 E43.91313
G1 X201.473 Y148.561 E44.05118
G1 X201.625 Y151.249 E44.1855
G1 X201.855 Y153.969 E44.32169
G1 X202.16 Y156.656 E44.4566
G1 X202.36 Y158.136 E44.53111
G1 X202.554 Y159.488 E44.59925
G1 X202.598 Y160.221 E44.63589
G1 X202.6 Y160.33 E44.64133
G1 X202.6 Y182.309 E45.73787
G1 X202.591 Y183.036 E45.77414
G1 X202.544 Y183.57 E45.80088
G1 X202.419 Y184.091 E45.82761
G1 X202.217 Y184.588 E45.85438
G1 X201.944 Y185.05 E45.88115
G1 X201.606 Y185.466 E45.90789
G1 X201.209 Y185.827 E45.93466
G1 X200.763 Y186.125 E45.96142
G1 X200.278 Y186.353 E45.98816
G1 X199.764 Y186.507 E46.01493
G1 X199.092 Y186.59 E46.04871
G1 X198.67 Y186.6 E46.06977
G1 X176.656 Y186.6 E47.16805
G1 X175.955 Y186.59 E47.20303
G1 X175.264 Y186.513 E47.23772
G1 X174.873 Y186.43 E47.25766
G1 X172.843 Y185.961 E47.36161
G1 X170.137 Y185.418 E47.4993
G1 X167.491 Y184.964 E47.63324
G1 X164.774 Y184.576 E47.77016
G1 X162.068 Y184.268 E47.90604
G1 X159.342 Y184.035 E48.04254
G1 X156.65 Y183.881 E48.17706
G1 X153.888 Y183.802 E48.31491
G1 X151.193 Y183.802 E48.44937
G1 X148.428 Y183.879 E48.58737
G1 X145.732 Y184.031 E48.72208
G1 X143.019 Y184.26 E48.85792
G1 X140.297 Y184.569 E48.99459
G1 X137.626 Y184.949 E49.12919
G1 X134.909 Y185.413 E49.2667
G1 X132.211 Y185.953 E49.40398
G1 X130.79 Y186.271 E49.47662
G1 X129.804 Y186.498 E49.5271
G1 X129.106 Y186.588 E49.56222
G1 X128.67 Y186.6 E49.58398
G1 X106.656 Y186.6 E50.68226
G1 X105.955 Y186.59 E50.71723
G1 X105.264 Y186.513 E50.75192
G1 X104.873 Y186.43 E50.77186
G1 X102.843 Y185.961 E50.87581
G1 X100.137 Y185.418 E51.0135
G1 X97.491 Y184.964 E51.14744
G1 X94.774 Y184.576 E51.28437
G1 X92.068 Y184.268 E51.42024
G1 X89.342 Y184.035 E51.55674
G1 X86.65 Y183.881 E51.69126
G1 X83.888 Y183.802 E51.82912
G1 X81.193 Y183.802 E51.96357
G1 X78.428 Y183.879 E52.10157
G1 X75.732 Y184.031 E52.23629
G1 X73.019 Y184.26 E52.37212
G1 X70.297 Y184.569 E52.5088
G1 X67.626 Y184.949 E52.64339
G1 X64.909 Y185.413 E52.78091
G1 X62.211 Y185.953 E52.91818
G1 X60.79 Y186.271 E52.99083
G1 X59.804 Y186.498 E53.04131
G1 X59.106 Y186.588 E53.07642
G1 X58.67 Y186.6 E53.09818
G1 X36.661 Y186.6 E54.19621
G1 X35.963 Y186.591 E54.23104
G1 X35.428 Y186.544 E54.25783
G1 X34.907 Y186.418 E54.28458
G1 X34.41 Y186.216 E54.31134
G1 X33.949 Y185.943 E54.33807
G1 X33.533 Y185.604 E54.36484
G1 X33.172 Y185.208 E54.39158
G1 X32.874 Y184.762 E54.41834
G1 X32.646 Y184.276 E54.44512
G1 X32.493 Y183.762 E54.47188
G1 X32.41 Y183.088 E54.50576
G1 X32.4 Y182.658 E54.52721
G1 X32.4 Y160.652 E55.6251
G1 X32.411 Y159.934 E55.66092
G1 X32.447 Y159.48 E55.68364
G1 X32.831 Y156.788 E55.81931
G1 X33.14 Y154.077 E55.95544
G1 X33.371 Y151.361 E56.09143
G1 X33.525 Y148.664 E56.2262
G1 X33.604 Y145.901 E56.3641
G1 X33.604 Y143.205 E56.49861
G1 X33.527 Y140.439 E56.63666
G1 X33.375 Y137.75 E56.77103
G1 X33.145 Y135.031 E56.90716
G1 X32.84 Y132.343 E57.04213
G1 X32.636 Y130.834 E57.1181
G1 X32.445 Y129.499 E57.18538
G1 X32.401 Y128.772 E57.22171
G1 X32.4 Y106.652 E58.32529
G1 X32.411 Y105.934 E58.36111
G1 X32.447 Y105.48 E58.38383
G1 X32.831 Y102.788 E58.5195
G1 X33.14 Y100.077 E58.65562
G1 X33.371 Y97.361 E58.79162
G1 X33.525 Y94.664 E58.92639
G1 X33.604 Y91.901 E59.06429
G1 X33.604 Y89.205 E59.1988
G1 X33.527 Y86.439 E59.33685
G1 X33.375 Y83.75 E59.47121
G1 X33.145 Y81.031 E59.60735
G1 X32.84 Y78.343 E59.74232
G1 X32.636 Y76.834 E59.81828
G1 X32.445 Y75.499 E59.88557
G1 X32.401 Y74.772 E59.9219
G1 X32.4 Y52.625 E61.02682
G1 X32.409 Y51.96 E61.06
G1 X32.457 Y51.426 E61.08675
G1 X32.583 Y50.905 E61.11349
G1 X32.785 Y50.408 E61.14026
G1 X33.058 Y49.947 E61.16699
G1 X33.397 Y49.531 E61.19376
G1 X33.794 Y49.171 E61.2205
G1 X33.896 Y49.103 E61.22661
G0 F1620 X34.241 Y48.873
G0 F3600 X34.18 Y49.383
G1 F1800 X34.617 Y49.128 E61.25186
G1 X35.088 Y48.944 E61.27708
G1 X35.582 Y48.838 E61.30229
G1 X36.24 Y48.801 E61.33517
G1 X58.339 Y48.8 E62.43769
G1 X59.04 Y48.81 E62.47267
G1 X59.653 Y48.879 E62.50345
G1 X60.037 Y48.96 E62.52302
G1 X62.093 Y49.435 E62.6283
G1 X64.748 Y49.968 E62.7634
G1 X67.457 Y50.432 E62.90052
G1 X70.196 Y50.824 E63.03856
G1 X72.889 Y51.13 E63.17378
G1 X75.602 Y51.363 E63.30963
G1 X78.35 Y51.519 E63.44695
G1 X81.101 Y51.598 E63.58426
G1 X83.818 Y51.598 E63.71981
G1 X86.571 Y51.521 E63.85721
G1 X89.288 Y51.368 E63.99298
G1 X92.023 Y51.137 E64.12991
G1 X94.767 Y50.826 E64.26769
G1 X97.46 Y50.443 E64.40339
G1 X100.131 Y49.987 E64.53858
G1 X102.867 Y49.439 E64.67779
G1 X104.32 Y49.114 E64.75207
G1 X105.286 Y48.892 E64.80152
G1 X105.906 Y48.812 E64.83271
G1 X106.33 Y48.8 E64.85387
G1 X128.339 Y48.8 E65.95191
G1 X129.04 Y48.81 E65.98688
G1 X129.653 Y48.879 E66.01766
G1 X130.037 Y48.96 E66.03724
G1 X132.093 Y49.435 E66.14251
G1 X134.748 Y49.968 E66.27761
G1 X137.457 Y50.432 E66.41474
G1 X140.196 Y50.824 E66.55278
G1 X142.889 Y51.13 E66.688
G1 X145.602 Y51.363 E66.82385
G1 X148.35 Y51.519 E66.96116
G1 X151.101 Y51.598 E67.09847
G1 X153.818 Y51.598 E67.23402
G1 X156.571 Y51.521 E67.37142
G1 X159.288 Y51.368 E67.50719
G1 X162.023 Y51.137 E67.64412
G1 X164.767 Y50.826 E67.7819
G1 X167.46 Y50.443 E67.91761
G1 X170.131 Y49.987 E68.05279
G1 X172.867 Y49.439 E68.192
G1 X174.32 Y49.114 E68.26628
G1 X175.286 Y48.892 E68.31573
G1 X175.906 Y48.812 E68.34692
G1 X176.33 Y48.8 E68.36808
G1 X198.334 Y48.8 E69.46587
G1 X199.032 Y48.809 E69.50069
G1 X199.536 Y48.856 E69.52595
G1 X200.026 Y48.981 E69.55118
G1 X200.49 Y49.182 E69.5764
G1 X200.916 Y49.453 E69.60159
G1 X201.295 Y49.788 E69.62683
G1 X201.616 Y50.179 E69.65207
G1 X201.871 Y50.615 E69.67727
G1 X202.055 Y51.086 E69.7025
G1 X202.162 Y51.58 E69.72771
G1 X202.199 Y52.24 E69.76069
G1 X202.2 Y74.322 E70.86237
G1 X202.189 Y75.059 E70.89914
G1 X202.157 Y75.463 E70.91936
G1 X201.77 Y78.177 E71.05613
G1 X201.462 Y80.877 E71.19171
G1 X201.232 Y83.586 E71.32735
G1 X201.075 Y86.336 E71.46477
G1 X200.996 Y89.088 E71.60212
G1 X200.996 Y91.807 E71.73777
G1 X201.073 Y94.557 E71.87503
G1 X201.226 Y97.272 E72.01069
G1 X201.458 Y100.012 E72.14788
G1 X201.771 Y102.769 E72.28631
G1 X201.964 Y104.192 E72.35796
G1 X202.158 Y105.544 E72.4261
G1 X202.199 Y106.233 E72.46053
