;FLAVOR:Marlin
;TIME:446
;Filament used: 0.581586m
;Layer height: 0.2
;MINX:32.8
;MINY:48.8
;MINZ:0.3
;MAXX:202.2
;MAXY:186.2
;MAXZ:0.3
;Generated with Cura_SteamEngine 4.9.1
M140 S63
M105
M190 S63
M104 S195
M105
M109 S195
M82 ;absolute extrusion mode
; Two Trees Bluer Custom Start G-code
G28 ;Home
M420 S1 ; restore ABL mesh
G92 E0 ;Reset Extruder
G1 Z4.0 F3000 ;Move Z Axis up
G1 E10 F1500 ;Purge a bit
G1 X10.1 Y20 Z0.2 F5000.0 ;Move to start position
G1 X10.1 Y200.0 Z0.2 F1500.0 E15 ;Draw the first line
G1 X10.4 Y200.0 Z0.2 F5000.0 ;Move to side a little
G1 X10.4 Y20 Z0.2 F1500.0 E20 ;Draw the second line
G92 E0 ;Reset Extruder
G1 Z3.0 X20 Y20 F3000 ;Move Z Axis up
G1 E3 F2700 ;Purge a bit
G92 E0
G92 E0
G1 F2700 E-5
;LAYER_COUNT:1
;LAYER:0
M107
G0 F3600 X34.18 Y49.383 Z0.3
;TYPE:SKIRT
G1 F2700 E0
G1 F1800 X34.617 Y49.128 E0.02524
G1 X35.088 Y48.944 E0.05047
G1 X35.582 Y48.838 E0.07568
G1 X36.24 Y48.801 E0.10856
G1 X58.339 Y48.8 E1.21108
G1 X59.04 Y48.81 E1.24606
G1 X59.653 Y48.879 E1.27683
G1 X60.037 Y48.96 E1.29641
G1 X62.093 Y49.435 E1.40169
G1 X64.748 Y49.968 E1.53679
G1 X67.457 Y50.432 E1.67391
G1 X70.196 Y50.824 E1.81195
G1 X72.889 Y51.13 E1.94717
G1 X75.602 Y51.363 E2.08302
G1 X78.35 Y51.519 E2.22034
G1 X81.101 Y51.598 E2.35764
G1 X83.818 Y51.598 E2.4932
G1 X86.571 Y51.521 E2.6306
G1 X89.288 Y51.368 E2.76636
G1 X92.023 Y51.137 E2.9033
G1 X94.767 Y50.826 E3.04107
G1 X97.46 Y50.443 E3.17678
G1 X100.131 Y49.987 E3.31197
G1 X102.867 Y49.439 E3.45118
G1 X104.32 Y49.114 E3.52546
G1 X105.286 Y48.892 E3.57491
G1 X105.906 Y48.812 E3.6061
G1 X106.33 Y48.8 E3.62726
G1 X128.339 Y48.8 E4.72529
G1 X129.04 Y48.81 E4.76027
G1 X129.653 Y48.879 E4.79104
G1 X130.037 Y48.96 E4.81062
G1 X132.093 Y49.435 E4.9159
G1 X134.748 Y49.968 E5.051
G1 X137.457 Y50.432 E5.18812
G1 X140.196 Y50.824 E5.32616
G1 X142.889 Y51.13 E5.46138
G1 X145.602 Y51.363 E5.59723
G1 X148.35 Y51.519 E5.73455
G1 X151.101 Y51.598 E5.87186
G1 X153.818 Y51.598 E6.00741
G1 X156.571 Y51.521 E6.14481
G1 X159.288 Y51.368 E6.28058
G1 X162.023 Y51.137 E6.41751
G1 X164.767 Y50.826 E6.55529
G1 X167.46 Y50.443 E6.69099
G1 X170.131 Y49.987 E6.82618
G1 X172.867 Y49.439 E6.96539
G1 X174.32 Y49.114 E7.03967
G1 X175.286 Y48.892 E7.08912
G1 X175.906 Y48.812 E7.12031
G1 X176.33 Y48.8 E7.14147
G1 X198.334 Y48.8 E8.23925
G1 X199.032 Y48.809 E8.27408
G1 X199.536 Y48.856 E8.29933
G1 X200.026 Y48.981 E8.32456
G1 X200.49 Y49.182 E8.34979
G1 X200.916 Y49.453 E8.37498
G1 X201.295 Y49.788 E8.40022
G1 X201.616 Y50.179 E8.42546
G1 X201.871 Y50.615 E8.45065
G1 X202.055 Y51.086 E8.47588
G1 X202.162 Y51.58 E8.5011
G1 X202.199 Y52.24 E8.53408
G1 X202.2 Y74.322 E9.63575
G1 X202.189 Y75.059 E9.67253
G1 X202.157 Y75.463 E9.69275
G1 X201.77 Y78.177 E9.82952
G1 X201.462 Y80.877 E9.9651
G1 X201.232 Y83.586 E10.10073
G1 X201.075 Y86.336 E10.23816
G1 X200.996 Y89.088 E10.37551
G1 X200.996 Y91.807 E10.51116
G1 X201.073 Y94.557 E10.64841
G1 X201.226 Y97.272 E10.78408
G1 X201.458 Y100.012 E10.92127
G1 X201.771 Y102.769 E11.0597
G1 X201.964 Y104.192 E11.13134
G1 X202.158 Y105.544 E11.19949
G1 X202.199 Y106.233 E11.23392
G1 X202.2 Y128.322 E12.33595
G1 X202.189 Y129.059 E12.37272
G1 X202.157 Y129.463 E12.39294
G1 X201.77 Y132.177 E12.52971
G1 X201.462 Y134.877 E12.66529
G1 X201.232 Y137.586 E12.80092
G1 X201.075 Y140.336 E12.93835
G1 X200.996 Y143.088 E13.0757
G1 X200.996 Y145.807 E13.21135
G1 X201.073 Y148.557 E13.3486
G1 X201.226 Y151.272 E13.48427
G1 X201.458 Y154.012 E13.62146
G1 X201.771 Y156.769 E13.75989
G1 X201.964 Y158.192 E13.83153
G1 X202.158 Y159.544 E13.89968
G1 X202.199 Y160.233 E13.93411
G1 X202.2 Y182.304 E15.03524
G1 X202.191 Y183.031 E15.07151
G1 X202.145 Y183.534 E15.09671
G1 X202.02 Y184.024 E15.12194
G1 X201.819 Y184.488 E15.14717
G1 X201.548 Y184.915 E15.1724
G1 X201.213 Y185.294 E15.19763
G1 X200.823 Y185.615 E15.22283
G1 X200.387 Y185.871 E15.24806
G1 X199.916 Y186.054 E15.27327
G1 X199.422 Y186.162 E15.2985
G1 X198.76 Y186.199 E15.33158
G1 X176.661 Y186.2 E16.4341
G1 X175.96 Y186.19 E16.46908
G1 X175.347 Y186.121 E16.49985
G1 X174.963 Y186.04 E16.51943
G1 X172.907 Y185.565 E16.62471
G1 X170.252 Y185.032 E16.75981
G1 X167.543 Y184.568 E16.89693
G1 X164.804 Y184.176 E17.03497
G1 X162.111 Y183.87 E17.17019
G1 X159.398 Y183.637 E17.30604
G1 X156.65 Y183.481 E17.44336
G1 X153.899 Y183.402 E17.58066
G1 X151.182 Y183.402 E17.71622
G1 X148.429 Y183.479 E17.85362
G1 X145.712 Y183.632 E17.98938
G1 X142.977 Y183.863 E18.12632
G1 X140.233 Y184.174 E18.26409
G1 X137.54 Y184.557 E18.3998
G1 X134.869 Y185.013 E18.53499
G1 X132.133 Y185.561 E18.6742
G1 X130.68 Y185.886 E18.74848
G1 X129.714 Y186.108 E18.79793
G1 X129.094 Y186.188 E18.82912
G1 X128.67 Y186.2 E18.85028
G1 X106.661 Y186.2 E19.94831
G1 X105.96 Y186.19 E19.98329
G1 X105.347 Y186.121 E20.01406
G1 X104.963 Y186.04 E20.03364
G1 X102.907 Y185.565 E20.13892
G1 X100.252 Y185.032 E20.27402
G1 X97.543 Y184.568 E20.41114
G1 X94.804 Y184.176 E20.54918
G1 X92.111 Y183.87 E20.6844
G1 X89.398 Y183.637 E20.82025
G1 X86.65 Y183.481 E20.95757
G1 X83.899 Y183.402 E21.09488
G1 X81.182 Y183.402 E21.23043
G1 X78.429 Y183.479 E21.36783
G1 X75.712 Y183.632 E21.5036
G1 X72.977 Y183.863 E21.64053
G1 X70.233 Y184.174 E21.77831
G1 X67.54 Y184.557 E21.91401
G1 X64.869 Y185.013 E22.0492
G1 X62.133 Y185.561 E22.18841
G1 X60.68 Y185.886 E22.26269
G1 X59.714 Y186.108 E22.31214
G1 X59.094 Y186.188 E22.34333
G1 X58.67 Y186.2 E22.36449
G1 X36.666 Y186.2 E23.46227
G1 X35.968 Y186.191 E23.4971
G1 X35.464 Y186.144 E23.52235
G1 X34.974 Y186.019 E23.54758
G1 X34.51 Y185.818 E23.57281
G1 X34.084 Y185.547 E23.598
G1 X33.705 Y185.212 E23.62324
G1 X33.384 Y184.821 E23.64847
G1 X33.129 Y184.385 E23.67367
G1 X32.945 Y183.914 E23.6989
G1 X32.838 Y183.42 E23.72412
G1 X32.801 Y182.744 E23.7579
G1 X32.8 Y160.658 E24.85977
G1 X32.811 Y159.94 E24.8956
G1 X32.843 Y159.537 E24.91576
G1 X33.23 Y156.823 E25.05254
G1 X33.538 Y154.123 E25.18811
G1 X33.768 Y151.414 E25.32375
G1 X33.925 Y148.664 E25.46117
G1 X34.004 Y145.912 E25.59853
G1 X34.004 Y143.193 E25.73418
G1 X33.927 Y140.443 E25.87143
G1 X33.774 Y137.727 E26.00715
G1 X33.542 Y134.988 E26.14429
G1 X33.228 Y132.222 E26.28317
G1 X33.033 Y130.781 E26.35572
G1 X32.841 Y129.442 E26.4232
G1 X32.801 Y128.76 E26.45729
G1 X32.8 Y106.658 E27.55996
G1 X32.811 Y105.94 E27.59578
G1 X32.843 Y105.537 E27.61595
G1 X33.23 Y102.823 E27.75273
G1 X33.538 Y100.123 E27.8883
G1 X33.768 Y97.414 E28.02394
G1 X33.925 Y94.664 E28.16136
G1 X34.004 Y91.912 E28.29872
G1 X34.004 Y89.193 E28.43437
G1 X33.927 Y86.443 E28.57162
G1 X33.774 Y83.727 E28.70734
G1 X33.542 Y80.988 E28.84448
G1 X33.228 Y78.222 E28.98336
G1 X33.033 Y76.781 E29.05591
G1 X32.841 Y75.442 E29.12339
G1 X32.801 Y74.76 E29.15748
G1 X32.8 Y52.631 E30.2615
G1 X32.809 Y51.966 E30.29468
G1 X32.856 Y51.462 E30.31993
G1 X32.982 Y50.973 E30.34512
G1 X33.183 Y50.509 E30.37035
G1 X33.454 Y50.082 E30.39558
G1 X33.789 Y49.704 E30.42078
G1 X34.18 Y49.383 E30.44602
G1 F2700 E25.44602
;MESH:Bed_Levelling.stl
G0 F3600 X38.114 Y51.335
G0 X38.114 Y54.114
G0 X56.83 Y72.83
G0 X56.9 Y72.9
;TYPE:WALL-INNER
M290 Z-0.3 ; move down 0.3mm on the Z axis
G1 F2700 E30.44602
G1 F1800 X38.1 Y72.9 E31.38396
G1 X38.1 Y54.1 E32.32189
G1 X56.9 Y54.1 E33.25983
G1 X56.9 Y72.9 E34.19776
G0 F3600 X57.3 Y73.3
;TYPE:WALL-OUTER
G1 F1800 X37.7 Y73.3 E35.17561
G1 X37.7 Y53.7 E36.15346
G1 X57.3 Y53.7 E37.13131
G1 X57.3 Y73.3 E38.10915
G0 F3600 X57.1 Y73.3
G0 X56.51 Y72.51
;TYPE:SKIN
G1 F1800 X38.49 Y72.51 E39.00818
G1 X38.49 Y54.49 E39.9072
G1 X56.51 Y54.49 E40.80622
G1 X56.51 Y72.51 E41.70524
G0 F3600 X56.329 Y55.198
G1 F1800 X55.801 Y54.669 E41.74253
G0 F3600 X55.235 Y54.669
G1 F1800 X56.329 Y55.763 E41.81972
G0 F3600 X56.329 Y56.329
G1 F1800 X54.669 Y54.669 E41.93684
G0 F3600 X54.104 Y54.669
G1 F1800 X56.329 Y56.895 E42.09386
G0 F3600 X56.329 Y57.46
G1 F1800 X53.538 Y54.669 E42.29078
G0 F3600 X52.972 Y54.669
G1 F1800 X56.329 Y58.026 E42.52763
G0 F3600 X56.329 Y58.592
G1 F1800 X52.407 Y54.669 E42.80439
G0 F3600 X51.841 Y54.669
G1 F1800 X56.329 Y59.157 E43.12104
G0 F3600 X56.329 Y59.723
G1 F1800 X51.275 Y54.669 E43.47763
G0 F3600 X50.71 Y54.669
G1 F1800 X56.329 Y60.289 E43.87411
G0 F3600 X56.329 Y60.855
G1 F1800 X50.144 Y54.669 E44.31053
G0 F3600 X49.578 Y54.669
G1 F1800 X56.329 Y61.42 E44.78685
G0 F3600 X56.329 Y61.986
G1 F1800 X49.013 Y54.669 E45.30307
G0 F3600 X48.447 Y54.669
G1 F1800 X56.329 Y62.552 E45.85922
G0 F3600 X56.329 Y63.117
G1 F1800 X47.881 Y54.669 E46.45528
G0 F3600 X47.316 Y54.669
G1 F1800 X56.33 Y63.684 E47.0913
G0 F3600 X56.33 Y64.249
G1 F1800 X46.75 Y54.669 E47.76722
G0 F3600 X46.184 Y54.669
G1 F1800 X56.33 Y64.815 E48.48307
G0 F3600 X56.33 Y65.381
G1 F1800 X45.618 Y54.669 E49.23886
G0 F3600 X45.053 Y54.669
G1 F1800 X56.33 Y65.946 E50.03452
G0 F3600 X56.33 Y66.512
G1 F1800 X44.487 Y54.669 E50.8701
G0 F3600 X43.921 Y54.669
G1 F1800 X56.33 Y67.078 E51.74563
G0 F3600 X56.33 Y67.643
G1 F1800 X43.356 Y54.669 E52.66101
G0 F3600 X42.79 Y54.669
G1 F1800 X56.33 Y68.209 E53.61633
G0 F3600 X56.33 Y68.775
G1 F1800 X42.224 Y54.669 E54.61159
G0 F3600 X41.659 Y54.669
G1 F1800 X56.33 Y69.341 E55.64674
G0 F3600 X56.33 Y69.906
G1 F1800 X41.093 Y54.669 E56.72179
G0 F3600 X40.527 Y54.669
G1 F1800 X56.33 Y70.472 E57.83678
G0 F3600 X56.33 Y71.038
G1 F1800 X39.962 Y54.669 E58.99167
G0 F3600 X39.396 Y54.669
G1 F1800 X56.33 Y71.603 E60.18645
G0 F3600 X56.33 Y72.169
G1 F1800 X38.83 Y54.669 E61.42117
G0 F3600 X38.669 Y55.074
G1 F1800 X55.924 Y72.329 E62.6386
G0 F3600 X55.358 Y72.329
G1 F1800 X38.669 Y55.64 E63.8161
G0 F3600 X38.669 Y56.205
G1 F1800 X54.792 Y72.329 E64.9537
G0 F3600 X54.227 Y72.329
G1 F1800 X38.669 Y56.771 E66.0514
G0 F3600 X38.669 Y57.337
G1 F1800 X53.661 Y72.329 E67.10917
G0 F3600 X53.095 Y72.329
G1 F1800 X38.669 Y57.902 E68.12704
G0 F3600 X38.669 Y58.468
G1 F1800 X52.53 Y72.329 E69.10501
G0 F3600 X51.964 Y72.329
G1 F1800 X38.669 Y59.034 E70.04304
G0 F3600 X38.669 Y59.599
G1 F1800 X51.398 Y72.329 E70.94118
G0 F3600 X50.833 Y72.329
G1 F1800 X38.669 Y60.165 E71.79941
G0 F3600 X38.669 Y60.731
G1 F1800 X50.267 Y72.329 E72.61771
G0 F3600 X49.701 Y72.329
G1 F1800 X38.669 Y61.296 E73.39612
G0 F3600 X38.669 Y61.862
G1 F1800 X49.136 Y72.329 E74.13462
G0 F3600 X48.57 Y72.329
G1 F1800 X38.669 Y62.428 E74.83319
G0 F3600 X38.669 Y62.994
G1 F1800 X48.004 Y72.329 E75.49182
G0 F3600 X47.439 Y72.329
G1 F1800 X38.669 Y63.559 E76.11059
G0 F3600 X38.669 Y64.125
G1 F1800 X46.873 Y72.329 E76.68943
G0 F3600 X46.307 Y72.329
G1 F1800 X38.669 Y64.691 E77.22833
G0 F3600 X38.669 Y65.256
G1 F1800 X45.742 Y72.329 E77.72737
G0 F3600 X45.176 Y72.329
G1 F1800 X38.669 Y65.822 E78.18647
G0 F3600 X38.669 Y66.388
G1 F1800 X44.61 Y72.329 E78.60564
G0 F3600 X44.044 Y72.329
G1 F1800 X38.669 Y66.953 E78.98492
G0 F3600 X38.669 Y67.519
G1 F1800 X43.479 Y72.329 E79.32429
G0 F3600 X42.913 Y72.329
G1 F1800 X38.669 Y68.085 E79.62372
G0 F3600 X38.669 Y68.65
G1 F1800 X42.347 Y72.329 E79.88326
G0 F3600 X41.782 Y72.329
G1 F1800 X38.669 Y69.216 E80.1029
G0 F3600 X38.669 Y69.782
G1 F1800 X41.216 Y72.329 E80.28261
G0 F3600 X40.65 Y72.329
G1 F1800 X38.669 Y70.347 E80.42241
G0 F3600 X38.669 Y70.913
G1 F1800 X40.085 Y72.329 E80.52232
G0 F3600 X39.519 Y72.329
G1 F1800 X38.669 Y71.479 E80.58229
G0 F3600 X38.669 Y72.044
G1 F1800 X38.953 Y72.329 E80.60236
G1 F2700 E75.60236
G0 F3600 X38.114 Y72.886
G0 X36.8 Y72.886
G0 X36.73 Y74.27
G0 X36.8 Y74.2
;TYPE:WALL-OUTER
G1 F2700 E80.60236
G1 F1800 X58.2 Y74.2 E81.67001
G1 X58.2 Y52.8 E82.73766
G1 X36.8 Y52.8 E83.80531
G1 X36.8 Y74.2 E84.87296
G0 F3600 X37 Y74.2
G0 X37 Y74.3
G0 X58.73 Y74.73
G0 X58.8 Y74.8
G1 F1800 X36.2 Y74.8 E86.00048
G1 X36.2 Y52.2 E87.128
G1 X58.8 Y52.2 E88.25552
G1 X58.8 Y74.8 E89.38304
G0 F3600 X58.6 Y74.8
G0 X58.376 Y74.498
;TYPE:SKIN
G1 F1800 X58.499 Y74.338 E89.38834
G1 X58.499 Y52.842 E89.95274
G1 X58.155 Y52.498 E89.96552
G1 X36.659 Y52.498 E90.52992
G1 X36.499 Y52.621 E90.53522
G1 X36.499 Y74.117 E91.09963
G1 X36.548 Y74.449 E91.10844
G1 X37.729 Y74.498 E91.13947
G1 X58.094 Y74.498 E91.67418
G0 F3600 X58.199 Y74.604
G0 X58.605 Y52.665
G1 F1800 X58.334 Y52.394 E91.68374
G0 F3600 X58.482 Y52.518
G1 F2700 E86.68374
G0 F3600 X58.228 Y74.228
G0 X56.83 Y74.78
G0 X56.83 Y75.665
G0 X56.83 Y105.335
G0 X56.83 Y108.12
G0 X56.83 Y126.83
G0 X56.9 Y126.9
;TYPE:WALL-INNER
M290 Z0.05 ; move up 0.05mm on the Z axis
G1 F2700 E91.68374
G1 F1800 X38.1 Y126.9 E92.62168
G1 X38.1 Y108.1 E93.55961
G1 X56.9 Y108.1 E94.49755
G1 X56.9 Y126.9 E95.43549
G0 F3600 X57.3 Y127.3
;TYPE:WALL-OUTER
G1 F1800 X37.7 Y127.3 E96.41333
G1 X37.7 Y107.7 E97.39118
G1 X57.3 Y107.7 E98.36903
G1 X57.3 Y127.3 E99.34688
G0 F3600 X57.1 Y127.3
G0 X56.51 Y126.51
;TYPE:SKIN
G1 F1800 X38.49 Y126.51 E100.2459
G1 X38.49 Y108.49 E101.14492
G1 X56.51 Y108.49 E102.04394
G1 X56.51 Y126.51 E102.94296
G0 F3600 X56.33 Y108.938
G1 F1800 X56.06 Y108.669 E102.96198
G0 F3600 X55.495 Y108.669
G1 F1800 X56.33 Y109.504 E103.02089
G0 F3600 X56.33 Y110.07
G1 F1800 X54.929 Y108.669 E103.11974
G0 F3600 X54.363 Y108.669
G1 F1800 X56.33 Y110.636 E103.25852
G0 F3600 X56.33 Y111.201
G1 F1800 X53.798 Y108.669 E103.43717
G0 F3600 X53.232 Y108.669
G1 F1800 X56.33 Y111.767 E103.65575
G0 F3600 X56.33 Y112.333
G1 F1800 X52.666 Y108.669 E103.91426
G0 F3600 X52.101 Y108.669
G1 F1800 X56.33 Y112.898 E104.21264
G0 F3600 X56.33 Y113.464
G1 F1800 X51.535 Y108.669 E104.55096
G0 F3600 X50.969 Y108.669
G1 F1800 X56.33 Y114.03 E104.9292
G0 F3600 X56.33 Y114.595
G1 F1800 X50.403 Y108.669 E105.34735
G0 F3600 X49.838 Y108.669
G1 F1800 X56.33 Y115.161 E105.8054
G0 F3600 X56.33 Y115.727
G1 F1800 X49.272 Y108.669 E106.30338
G0 F3600 X48.706 Y108.669
G1 F1800 X56.33 Y116.292 E106.84126
G0 F3600 X56.33 Y116.858
G1 F1800 X48.141 Y108.669 E107.41903
G0 F3600 X47.575 Y108.669
G1 F1800 X56.33 Y117.424 E108.03675
G0 F3600 X56.33 Y117.989
G1 F1800 X47.009 Y108.669 E108.69436
G0 F3600 X46.444 Y108.669
G1 F1800 X56.33 Y118.555 E109.39187
G0 F3600 X56.33 Y119.121
G1 F1800 X45.878 Y108.669 E110.12931
G0 F3600 X45.312 Y108.669
G1 F1800 X56.33 Y119.687 E110.90669
G0 F3600 X56.33 Y120.252
G1 F1800 X44.747 Y108.669 E111.72394
G0 F3600 X44.181 Y108.669
G1 F1800 X56.33 Y120.818 E112.58111
G0 F3600 X56.33 Y121.384
G1 F1800 X43.615 Y108.669 E113.47823
G0 F3600 X43.05 Y108.669
G1 F1800 X56.33 Y121.949 E114.4152
G0 F3600 X56.33 Y122.515
G1 F1800 X42.484 Y108.669 E115.39211
G0 F3600 X41.918 Y108.669
G1 F1800 X56.33 Y123.081 E116.40896
G0 F3600 X56.33 Y123.646
G1 F1800 X41.353 Y108.669 E117.46566
G0 F3600 X40.787 Y108.669
G1 F1800 X56.33 Y124.212 E118.56231
G0 F3600 X56.33 Y124.778
G1 F1800 X40.221 Y108.669 E119.69888
G0 F3600 X39.655 Y108.669
G1 F1800 X56.33 Y125.343 E120.87536
G0 F3600 X56.33 Y125.909
G1 F1800 X39.09 Y108.669 E122.09173
G0 F3600 X38.67 Y108.815
G1 F1800 X56.183 Y126.328 E123.32737
G0 F3600 X55.618 Y126.328
G1 F1800 X38.67 Y109.38 E124.52314
G0 F3600 X38.67 Y109.946
G1 F1800 X55.052 Y126.328 E125.67898
G0 F3600 X54.486 Y126.328
G1 F1800 X38.67 Y110.512 E126.79489
G0 F3600 X38.67 Y111.077
G1 F1800 X53.921 Y126.328 E127.87093
G0 F3600 X53.355 Y126.328
G1 F1800 X38.67 Y111.643 E128.90703
G0 F3600 X38.67 Y112.209
G1 F1800 X52.789 Y126.328 E129.90321
G0 F3600 X52.224 Y126.328
G1 F1800 X38.67 Y112.775 E130.85948
G0 F3600 X38.67 Y113.34
G1 F1800 X51.658 Y126.328 E131.77585
G0 F3600 X51.092 Y126.328
G1 F1800 X38.67 Y113.906 E132.65229
G0 F3600 X38.67 Y114.472
G1 F1800 X50.527 Y126.328 E133.48883
G0 F3600 X49.961 Y126.328
G1 F1800 X38.67 Y115.037 E134.28547
G0 F3600 X38.67 Y115.603
G1 F1800 X49.395 Y126.328 E135.04218
G0 F3600 X48.829 Y126.328
G1 F1800 X38.67 Y116.169 E135.75895
G0 F3600 X38.67 Y116.734
G1 F1800 X48.264 Y126.328 E136.43586
G0 F3600 X47.698 Y126.328
G1 F1800 X38.67 Y117.3 E137.07283
G0 F3600 X38.67 Y117.866
G1 F1800 X47.132 Y126.328 E137.66987
G0 F3600 X46.567 Y126.328
G1 F1800 X38.67 Y118.431 E138.22705
G0 F3600 X38.67 Y118.997
G1 F1800 X46.001 Y126.328 E138.74429
G0 F3600 X45.435 Y126.328
G1 F1800 X38.67 Y119.563 E139.2216
G0 F3600 X38.67 Y120.128
G1 F1800 X44.87 Y126.328 E139.65904
G0 F3600 X44.304 Y126.328
G1 F1800 X38.67 Y120.694 E140.05655
G0 F3600 X38.67 Y121.26
