;FLAVOR:Marlin
;TIME:445
;Filament used: 0.387573m
;Layer height: 0.2
;MINX:32.8
;MINY:48.8
;MINZ:0.2
;MAXX:202.2
;MAXY:186.2
;MAXZ:0.2
;Generated with Cura_SteamEngine 4.9.1
M140 S63
M105
M190 S63
M104 S195
M105
M109 S195
M82 ;absolute extrusion mode
; Two Trees Bluer Custom Start G-code
G28 ;Home
M420 S1 ; restore ABL mesh
G92 E0 ;Reset Extruder
G1 Z4.0 F3000 ;Move Z Axis up
G1 E10 F1500 ;Purge a bit
G1 X10.1 Y20 Z0.2 F5000.0 ;Move to start position
G1 X10.1 Y200.0 Z0.2 F1500.0 E15 ;Draw the first line
G1 X10.4 Y200.0 Z0.2 F5000.0 ;Move to side a little
G1 X10.4 Y20 Z0.2 F1500.0 E20 ;Draw the second line
G92 E0 ;Reset Extruder
G1 Z3.0 X20 Y20 F3000 ;Move Z Axis up
G1 E3 F2700 ;Purge a bit
G92 E0
G92 E0
G1 F2700 E-5
;LAYER_COUNT:1
;LAYER:0
M107
G0 F3600 X34.18 Y49.383 Z0.2
;TYPE:SKIRT
G1 F2700 E0
G1 F1800 X34.617 Y49.128 E0.01683
G1 X35.088 Y48.944 E0.03365
G1 X35.582 Y48.838 E0.05045
G1 X36.24 Y48.801 E0.07237
G1 X58.339 Y48.8 E0.80739
G1 X59.04 Y48.81 E0.8307
G1 X59.653 Y48.879 E0.85122
G1 X60.037 Y48.96 E0.86427
G1 X62.093 Y49.435 E0.93446
G1 X64.748 Y49.968 E1.02453
G1 X67.457 Y50.432 E1.11594
G1 X70.196 Y50.824 E1.20797
G1 X72.889 Y51.13 E1.29811
G1 X75.602 Y51.363 E1.38868
G1 X78.35 Y51.519 E1.48023
G1 X81.101 Y51.598 E1.57176
G1 X83.818 Y51.598 E1.66213
G1 X86.571 Y51.521 E1.75373
G1 X89.288 Y51.368 E1.84424
G1 X92.023 Y51.137 E1.93553
G1 X94.767 Y50.826 E2.02738
G1 X97.46 Y50.443 E2.11785
G1 X100.131 Y49.987 E2.20798
G1 X102.867 Y49.439 E2.30078
G1 X104.32 Y49.114 E2.35031
G1 X105.286 Y48.892 E2.38327
G1 X105.906 Y48.812 E2.40406
G1 X106.33 Y48.8 E2.41817
G1 X128.339 Y48.8 E3.15019
G1 X129.04 Y48.81 E3.17351
G1 X129.653 Y48.879 E3.19403
G1 X130.037 Y48.96 E3.20708
G1 X132.093 Y49.435 E3.27727
G1 X134.748 Y49.968 E3.36733
G1 X137.457 Y50.432 E3.45875
G1 X140.196 Y50.824 E3.55078
G1 X142.889 Y51.13 E3.64092
G1 X145.602 Y51.363 E3.73149
G1 X148.35 Y51.519 E3.82303
G1 X151.101 Y51.598 E3.91457
G1 X153.818 Y51.598 E4.00494
G1 X156.571 Y51.521 E4.09654
G1 X159.288 Y51.368 E4.18705
G1 X162.023 Y51.137 E4.27834
G1 X164.767 Y50.826 E4.37019
G1 X167.46 Y50.443 E4.46066
G1 X170.131 Y49.987 E4.55079
G1 X172.867 Y49.439 E4.64359
G1 X174.32 Y49.114 E4.69311
G1 X175.286 Y48.892 E4.72608
G1 X175.906 Y48.812 E4.74687
G1 X176.33 Y48.8 E4.76098
G1 X198.334 Y48.8 E5.49284
G1 X199.032 Y48.809 E5.51605
G1 X199.536 Y48.856 E5.53289
G1 X200.026 Y48.981 E5.54971
G1 X200.49 Y49.182 E5.56653
G1 X200.916 Y49.453 E5.58332
G1 X201.295 Y49.788 E5.60014
G1 X201.616 Y50.179 E5.61697
G1 X201.871 Y50.615 E5.63377
G1 X202.055 Y51.086 E5.65059
G1 X202.162 Y51.58 E5.6674
G1 X202.199 Y52.24 E5.68939
G1 X202.2 Y74.322 E6.42384
G1 X202.189 Y75.059 E6.44835
G1 X202.157 Y75.463 E6.46183
G1 X201.77 Y78.177 E6.55301
G1 X201.462 Y80.877 E6.6434
G1 X201.232 Y83.586 E6.73382
G1 X201.075 Y86.336 E6.82544
G1 X200.996 Y89.088 E6.91701
G1 X200.996 Y91.807 E7.00744
G1 X201.073 Y94.557 E7.09894
G1 X201.226 Y97.272 E7.18939
G1 X201.458 Y100.012 E7.28085
G1 X201.771 Y102.769 E7.37313
G1 X201.964 Y104.192 E7.4209
G1 X202.158 Y105.544 E7.46632
G1 X202.199 Y106.233 E7.48928
G1 X202.2 Y128.322 E8.22396
G1 X202.189 Y129.059 E8.24848
G1 X202.157 Y129.463 E8.26196
G1 X201.77 Y132.177 E8.35314
G1 X201.462 Y134.877 E8.44352
G1 X201.232 Y137.586 E8.53395
G1 X201.075 Y140.336 E8.62556
G1 X200.996 Y143.088 E8.71713
G1 X200.996 Y145.807 E8.80757
G1 X201.073 Y148.557 E8.89907
G1 X201.226 Y151.272 E8.98951
G1 X201.458 Y154.012 E9.08097
G1 X201.771 Y156.769 E9.17326
G1 X201.964 Y158.192 E9.22102
G1 X202.158 Y159.544 E9.26645
G1 X202.199 Y160.233 E9.28941
G1 X202.2 Y182.304 E10.02349
G1 X202.191 Y183.031 E10.04767
G1 X202.145 Y183.534 E10.06447
G1 X202.02 Y184.024 E10.08129
G1 X201.819 Y184.488 E10.09811
G1 X201.548 Y184.915 E10.11493
G1 X201.213 Y185.294 E10.13176
G1 X200.823 Y185.615 E10.14856
G1 X200.387 Y185.871 E10.16537
G1 X199.916 Y186.054 E10.18218
G1 X199.422 Y186.162 E10.199
G1 X198.76 Y186.199 E10.22105
G1 X176.661 Y186.2 E10.95607
G1 X175.96 Y186.19 E10.97938
G1 X175.347 Y186.121 E10.9999
G1 X174.963 Y186.04 E11.01295
G1 X172.907 Y185.565 E11.08314
G1 X170.252 Y185.032 E11.17321
G1 X167.543 Y184.568 E11.26462
G1 X164.804 Y184.176 E11.35665
G1 X162.111 Y183.87 E11.44679
G1 X159.398 Y183.637 E11.53736
G1 X156.65 Y183.481 E11.62891
G1 X153.899 Y183.402 E11.72044
G1 X151.182 Y183.402 E11.81081
G1 X148.429 Y183.479 E11.90241
G1 X145.712 Y183.632 E11.99292
G1 X142.977 Y183.863 E12.08421
G1 X140.233 Y184.174 E12.17606
G1 X137.54 Y184.557 E12.26653
G1 X134.869 Y185.013 E12.35666
G1 X132.133 Y185.561 E12.44946
G1 X130.68 Y185.886 E12.49898
G1 X129.714 Y186.108 E12.53195
G1 X129.094 Y186.188 E12.55274
G1 X128.67 Y186.2 E12.56685
G1 X106.661 Y186.2 E13.29887
G1 X105.96 Y186.19 E13.32219
G1 X105.347 Y186.121 E13.34271
G1 X104.963 Y186.04 E13.35576
G1 X102.907 Y185.565 E13.42595
G1 X100.252 Y185.032 E13.51601
G1 X97.543 Y184.568 E13.60743
G1 X94.804 Y184.176 E13.69946
G1 X92.111 Y183.87 E13.7896
G1 X89.398 Y183.637 E13.88017
G1 X86.65 Y183.481 E13.97171
G1 X83.899 Y183.402 E14.06325
G1 X81.182 Y183.402 E14.15362
G1 X78.429 Y183.479 E14.24522
G1 X75.712 Y183.632 E14.33573
G1 X72.977 Y183.863 E14.42702
G1 X70.233 Y184.174 E14.51887
G1 X67.54 Y184.557 E14.60934
G1 X64.869 Y185.013 E14.69946
G1 X62.133 Y185.561 E14.79227
G1 X60.68 Y185.886 E14.84179
G1 X59.714 Y186.108 E14.87476
G1 X59.094 Y186.188 E14.89555
G1 X58.67 Y186.2 E14.90966
G1 X36.666 Y186.2 E15.64152
G1 X35.968 Y186.191 E15.66473
G1 X35.464 Y186.144 E15.68157
G1 X34.974 Y186.019 E15.69839
G1 X34.51 Y185.818 E15.71521
G1 X34.084 Y185.547 E15.732
G1 X33.705 Y185.212 E15.74882
G1 X33.384 Y184.821 E15.76565
G1 X33.129 Y184.385 E15.78245
G1 X32.945 Y183.914 E15.79927
G1 X32.838 Y183.42 E15.81608
G1 X32.801 Y182.744 E15.8386
G1 X32.8 Y160.658 E16.57318
G1 X32.811 Y159.94 E16.59706
G1 X32.843 Y159.537 E16.61051
G1 X33.23 Y156.823 E16.70169
G1 X33.538 Y154.123 E16.79208
G1 X33.768 Y151.414 E16.8825
G1 X33.925 Y148.664 E16.97412
G1 X34.004 Y145.912 E17.06569
G1 X34.004 Y143.193 E17.15612
G1 X33.927 Y140.443 E17.24762
G1 X33.774 Y137.727 E17.3381
G1 X33.542 Y134.988 E17.42952
G1 X33.228 Y132.222 E17.52211
G1 X33.033 Y130.781 E17.57048
G1 X32.841 Y129.442 E17.61547
G1 X32.801 Y128.76 E17.63819
G1 X32.8 Y106.658 E18.37331
G1 X32.811 Y105.94 E18.39719
G1 X32.843 Y105.537 E18.41064
G1 X33.23 Y102.823 E18.50182
G1 X33.538 Y100.123 E18.5922
G1 X33.768 Y97.414 E18.68263
G1 X33.925 Y94.664 E18.77424
G1 X34.004 Y91.912 E18.86581
G1 X34.004 Y89.193 E18.95625
G1 X33.927 Y86.443 E19.04775
G1 X33.774 Y83.727 E19.13822
G1 X33.542 Y80.988 E19.22965
G1 X33.228 Y78.222 E19.32224
G1 X33.033 Y76.781 E19.3706
G1 X32.841 Y75.442 E19.41559
G1 X32.801 Y74.76 E19.43832
G1 X32.8 Y52.631 E20.17433
G1 X32.809 Y51.966 E20.19645
G1 X32.856 Y51.462 E20.21329
G1 X32.982 Y50.973 E20.23008
G1 X33.183 Y50.509 E20.2469
G1 X33.454 Y50.082 E20.26372
G1 X33.789 Y49.704 E20.28052
G1 X34.18 Y49.383 E20.29735
G1 F2700 E15.29735
;MESH:Bed_Levelling.stl
G0 F3600 X38.114 Y51.335
G0 X38.114 Y54.114
G0 X56.1 Y72.1
;TYPE:WALL-INNER
M290 Z-0.100 ; move up 0.25mm on the Z axis
G1 F2700 E20.29735
G1 F1800 X38.9 Y72.1 E20.86942
G1 X38.9 Y54.9 E21.44149
G1 X56.1 Y54.9 E22.01357
G1 X56.1 Y72.1 E22.58564
G0 F3600 X56.5 Y72.5
G1 F1800 X38.5 Y72.5 E23.18433
G1 X38.5 Y54.5 E23.78301
G1 X56.5 Y54.5 E24.38169
G1 X56.5 Y72.5 E24.98037
G0 F3600 X56.9 Y72.9
G1 F1800 X38.1 Y72.9 E25.60566
G1 X38.1 Y54.1 E26.23095
G1 X56.9 Y54.1 E26.85624
G1 X56.9 Y72.9 E27.48154
G0 F3600 X57.3 Y73.3
;TYPE:WALL-OUTER
G1 F1800 X37.7 Y73.3 E28.13343
G1 X37.7 Y53.7 E28.78533
G1 X57.3 Y53.7 E29.43723
G1 X57.3 Y73.3 E30.08913
G0 F3600 X57.1 Y73.3
G0 X56.83 Y72.83
G0 X55.71 Y71.71
;TYPE:SKIN
G1 F1800 X39.29 Y71.71 E30.63526
G1 X39.29 Y55.29 E31.18139
G1 X55.71 Y55.29 E31.72752
G1 X55.71 Y71.71 E32.27366
G0 F3600 X55.529 Y55.529
G1 F1800 X55.469 Y55.469 E32.27648
G0 F3600 X54.904 Y55.469
G1 F1800 X55.529 Y56.095 E32.3059
G0 F3600 X55.529 Y56.661
G1 F1800 X54.338 Y55.469 E32.36194
G0 F3600 X53.772 Y55.469
G1 F1800 X55.529 Y57.226 E32.44459
G0 F3600 X55.529 Y57.792
G1 F1800 X53.206 Y55.469 E32.55385
G0 F3600 X52.641 Y55.469
G1 F1800 X55.529 Y58.358 E32.68972
G0 F3600 X55.529 Y58.923
G1 F1800 X52.075 Y55.469 E32.85219
G0 F3600 X51.509 Y55.469
G1 F1800 X55.529 Y59.489 E33.04127
G0 F3600 X55.529 Y60.055
G1 F1800 X50.944 Y55.469 E33.25696
G0 F3600 X50.378 Y55.469
G1 F1800 X55.529 Y60.62 E33.49925
G0 F3600 X55.529 Y61.186
G1 F1800 X49.812 Y55.469 E33.76816
G0 F3600 X49.247 Y55.469
G1 F1800 X55.529 Y61.752 E34.06367
G0 F3600 X55.529 Y62.318
G1 F1800 X48.681 Y55.469 E34.3858
G0 F3600 X48.115 Y55.469
G1 F1800 X55.529 Y62.883 E34.73453
G0 F3600 X55.529 Y63.449
G1 F1800 X47.55 Y55.469 E35.10987
G0 F3600 X46.984 Y55.469
G1 F1800 X55.529 Y64.015 E35.51182
G0 F3600 X55.529 Y64.58
G1 F1800 X46.418 Y55.469 E35.94037
G0 F3600 X45.853 Y55.469
G1 F1800 X55.529 Y65.146 E36.39553
G0 F3600 X55.529 Y65.712
G1 F1800 X45.287 Y55.469 E36.8773
G0 F3600 X44.721 Y55.469
G1 F1800 X55.529 Y66.277 E37.38568
G0 F3600 X55.529 Y66.843
G1 F1800 X44.155 Y55.469 E37.92067
G0 F3600 X43.59 Y55.469
G1 F1800 X55.529 Y67.409 E38.48227
G0 F3600 X55.529 Y67.974
G1 F1800 X43.024 Y55.469 E39.07047
G0 F3600 X42.458 Y55.469
G1 F1800 X55.529 Y68.54 E39.68529
G0 F3600 X55.529 Y69.106
G1 F1800 X41.893 Y55.469 E40.32671
G0 F3600 X41.327 Y55.469
G1 F1800 X55.529 Y69.671 E40.99473
G0 F3600 X55.529 Y70.237
G1 F1800 X40.761 Y55.469 E41.68937
G0 F3600 X40.196 Y55.469
G1 F1800 X55.529 Y70.803 E42.41061
G0 F3600 X55.529 Y71.368
G1 F1800 X39.63 Y55.469 E43.15845
G0 F3600 X39.469 Y55.874
G1 F1800 X55.123 Y71.528 E43.89477
G0 F3600 X54.558 Y71.528
G1 F1800 X39.469 Y56.44 E44.60448
G0 F3600 X39.469 Y57.006
G1 F1800 X53.992 Y71.528 E45.28758
G0 F3600 X53.426 Y71.528
G1 F1800 X39.469 Y57.571 E45.94407
G0 F3600 X39.469 Y58.137
G1 F1800 X52.861 Y71.528 E46.57397
G0 F3600 X52.295 Y71.528
G1 F1800 X39.469 Y58.703 E47.17724
G0 F3600 X39.469 Y59.268
G1 F1800 X51.729 Y71.528 E47.75391
G0 F3600 X51.164 Y71.528
G1 F1800 X39.469 Y59.834 E48.30398
G0 F3600 X39.469 Y60.4
G1 F1800 X50.598 Y71.528 E48.82743
G0 F3600 X50.032 Y71.528
G1 F1800 X39.469 Y60.966 E49.32426
G0 F3600 X39.469 Y61.531
G1 F1800 X49.467 Y71.528 E49.79451
G0 F3600 X48.901 Y71.528
G1 F1800 X39.469 Y62.097 E50.23814
G0 F3600 X39.469 Y62.663
G1 F1800 X48.335 Y71.528 E50.65515
G0 F3600 X47.77 Y71.528
G1 F1800 X39.469 Y63.228 E51.04558
G0 F3600 X39.469 Y63.794
G1 F1800 X47.204 Y71.528 E51.40939
G0 F3600 X46.638 Y71.528
G1 F1800 X39.469 Y64.36 E51.74657
G0 F3600 X39.469 Y64.925
G1 F1800 X46.072 Y71.528 E52.05715
G0 F3600 X45.507 Y71.528
G1 F1800 X39.469 Y65.491 E52.34114
G0 F3600 X39.469 Y66.057
G1 F1800 X44.941 Y71.528 E52.5985
G0 F3600 X44.375 Y71.528
G1 F1800 X39.469 Y66.622 E52.82927
G0 F3600 X39.469 Y67.188
G1 F1800 X43.81 Y71.528 E53.03343
G0 F3600 X43.244 Y71.528
G1 F1800 X39.469 Y67.754 E53.21097
G0 F3600 X39.469 Y68.319
G1 F1800 X42.678 Y71.528 E53.36191
G0 F3600 X42.113 Y71.528
G1 F1800 X39.469 Y68.885 E53.48625
G0 F3600 X39.469 Y69.451
G1 F1800 X41.547 Y71.528 E53.58397
G0 F3600 X40.981 Y71.528
G1 F1800 X39.469 Y70.017 E53.65507
G0 F3600 X39.469 Y70.582
G1 F1800 X40.416 Y71.528 E53.69959
G0 F3600 X39.85 Y71.528
G1 F1800 X39.469 Y71.148 E53.71749
G1 F2700 E48.71749
G0 F3600 X38.114 Y72.886
G0 X36.8 Y72.886
G0 X36.73 Y74.27
G0 X36.8 Y74.2
;TYPE:WALL-OUTER
G1 F2700 E53.71749
G1 F1800 X58.2 Y74.2 E54.42926
G1 X58.2 Y52.8 E55.14102
G1 X36.8 Y52.8 E55.85279
G1 X36.8 Y74.2 E56.56456
G0 F3600 X37 Y74.2
G0 X37 Y74.3
G0 X58.73 Y74.73
G0 X58.8 Y74.8
G1 F1800 X36.2 Y74.8 E57.31623
G1 X36.2 Y52.2 E58.06791
G1 X58.8 Y52.2 E58.81959
G1 X58.8 Y74.8 E59.57127
G0 F3600 X58.6 Y74.8
G0 X58.376 Y74.498
;TYPE:SKIN
G1 F1800 X58.499 Y74.338 E59.5748
G1 X58.499 Y52.842 E59.95107
G1 X58.155 Y52.498 E59.95959
G1 X36.659 Y52.498 E60.33586
G1 X36.499 Y52.621 E60.33939
G1 X36.499 Y74.117 E60.71566
G1 X36.548 Y74.449 E60.72154
G1 X37.729 Y74.498 E60.74223
G1 X58.094 Y74.498 E61.0987
G0 F3600 X58.199 Y74.604
G0 X58.605 Y52.665
G1 F1800 X58.334 Y52.394 E61.10507
G0 F3600 X58.482 Y52.518
G1 F2700 E56.10507
G0 F3600 X58.228 Y74.228
G0 X56.1 Y74.78
G0 X56.1 Y75.665
G0 X56.1 Y105.335
G0 X56.1 Y108.12
G0 X56.1 Y126.1
;TYPE:WALL-INNER
M290 Z0.025 ; move up 0.25mm on the Z axis
G1 F2700 E61.10507
G1 F1800 X38.9 Y126.1 E61.67715
G1 X38.9 Y108.9 E62.24922
G1 X56.1 Y108.9 E62.8213
G1 X56.1 Y126.1 E63.39337
G0 F3600 X56.5 Y126.5
G1 F1800 X38.5 Y126.5 E63.99205
G1 X38.5 Y108.5 E64.59074
G1 X56.5 Y108.5 E65.18942
G1 X56.5 Y126.5 E65.7881
G0 F3600 X56.9 Y126.9
G1 F1800 X38.1 Y126.9 E66.41339
G1 X38.1 Y108.1 E67.03868
G1 X56.9 Y108.1 E67.66397
G1 X56.9 Y126.9 E68.28926
G0 F3600 X57.3 Y127.3
;TYPE:WALL-OUTER
G1 F1800 X37.7 Y127.3 E68.94116
G1 X37.7 Y107.7 E69.59306
G1 X57.3 Y107.7 E70.24496
G1 X57.3 Y127.3 E70.89686
G0 F3600 X57.1 Y127.3
G0 X56.83 Y126.83
G0 X55.71 Y125.71
;TYPE:SKIN
G1 F1800 X39.29 Y125.71 E71.44299
G1 X39.29 Y109.29 E71.98912
G1 X55.71 Y109.29 E72.53525
G1 X55.71 Y125.71 E73.08138
G0 F3600 X55.529 Y109.835
G1 F1800 X55.163 Y109.469 E73.0986
G0 F3600 X54.597 Y109.469
G1 F1800 X55.529 Y110.401 E73.14244
G0 F3600 X55.529 Y110.966
G1 F1800 X54.032 Y109.469 E73.21285
G0 F3600 X53.466 Y109.469
G1 F1800 X55.529 Y111.532 E73.30989
G0 F3600 X55.529 Y112.098
G1 F1800 X52.9 Y109.469 E73.43355
G0 F3600 X52.335 Y109.469
G1 F1800 X55.529 Y112.664 E73.58381
G0 F3600 X55.529 Y113.229
G1 F1800 X51.769 Y109.469 E73.76067
G0 F3600 X51.203 Y109.469
G1 F1800 X55.529 Y113.795 E73.96415
G0 F3600 X55.529 Y114.361
G1 F1800 X50.638 Y109.469 E74.19423
G0 F3600 X50.072 Y109.469
G1 F1800 X55.529 Y114.926 E74.45091
G0 F3600 X55.529 Y115.492
G1 F1800 X49.506 Y109.469 E74.73422
G0 F3600 X48.94 Y109.469
G1 F1800 X55.529 Y116.058 E75.04414
G0 F3600 X55.529 Y116.623
G1 F1800 X48.375 Y109.469 E75.38064
G0 F3600 X47.809 Y109.469
G1 F1800 X55.529 Y117.189 E75.74377
G0 F3600 X55.529 Y117.755
G1 F1800 X47.243 Y109.469 E76.13352
G0 F3600 X46.678 Y109.469
G1 F1800 X55.529 Y118.32 E76.54984
G0 F3600 X55.529 Y118.886
G1 F1800 X46.112 Y109.469 E76.99279
G0 F3600 X45.546 Y109.469
G1 F1800 X55.529 Y119.452 E77.46236
G0 F3600 X55.529 Y120.017
G1 F1800 X44.981 Y109.469 E77.9585
G0 F3600 X44.415 Y109.469
G1 F1800 X55.529 Y120.583 E78.48127
G0 F3600 X55.529 Y121.149
G1 F1800 X43.849 Y109.469 E79.03066
G0 F3600 X43.284 Y109.469
G1 F1800 X55.529 Y121.714 E79.60663
G0 F3600 X55.529 Y122.28
G1 F1800 X42.718 Y109.469 E80.20922
G0 F3600 X42.152 Y109.469
G1 F1800 X55.529 Y122.846 E80.83843
G0 F3600 X55.529 Y123.412
G1 F1800 X41.587 Y109.469 E81.49425
G0 F3600 X41.021 Y109.469
G1 F1800 X55.529 Y123.977 E82.17666
G0 F3600 X55.529 Y124.543
G1 F1800 X40.455 Y109.469 E82.88569
G0 F3600 X39.89 Y109.469
G1 F1800 X55.529 Y125.109 E83.62133
G0 F3600 X55.384 Y125.529
G1 F1800 X39.469 Y109.614 E84.36992
G0 F3600 X39.469 Y110.18
G1 F1800 X54.818 Y125.529 E85.09189
G0 F3600 X54.252 Y125.529
G1 F1800 X39.469 Y110.746 E85.78724
G0 F3600 X39.469 Y111.312
G1 F1800 X53.687 Y125.529 E86.45598
G0 F3600 X53.121 Y125.529
G1 F1800 X39.469 Y111.877 E87.09813
G0 F3600 X39.469 Y112.443
G1 F1800 X52.555 Y125.529 E87.71366
G0 F3600 X51.99 Y125.529
G1 F1800 X39.469 Y113.009 E88.30258
G0 F3600 X39.469 Y113.574
G1 F1800 X51.424 Y125.529 E88.86491
G0 F3600 X50.858 Y125.529
G1 F1800 X39.469 Y114.14 E89.40061
G0 F3600 X39.469 Y114.706
G1 F1800 X50.292 Y125.529 E89.90969
G0 F3600 X49.727 Y125.529
G1 F1800 X39.469 Y115.271 E90.3922
G0 F3600 X39.469 Y115.837
G1 F1800 X49.161 Y125.529 E90.84808
G0 F3600 X48.595 Y125.529
G1 F1800 X39.469 Y116.403 E91.27734
G0 F3600 X39.469 Y116.968
G1 F1800 X48.03 Y125.529 E91.68002
G0 F3600 X47.464 Y125.529
G1 F1800 X39.469 Y117.534 E92.05608
G0 F3600 X39.469 Y118.1
G1 F1800 X46.898 Y125.529 E92.40552
G0 F3600 X46.333 Y125.529
G1 F1800 X39.469 Y118.665 E92.72838
G0 F3600 X39.469 Y119.231
G1 F1800 X45.767 Y125.529 E93.02462
G0 F3600 X45.201 Y125.529
G1 F1800 X39.469 Y119.797 E93.29424
G0 F3600 X39.469 Y120.363
G1 F1800 X44.636 Y125.529 E93.53725
G0 F3600 X44.07 Y125.529
G1 F1800 X39.469 Y120.928 E93.75367
G0 F3600 X39.469 Y121.494
G1 F1800 X43.504 Y125.529 E93.94346
